; HEADER_BLOCK_START
; generated by OrcaSlicer 2.0.0 on 2024-11-27 at 20:21:47
; total layer number: 126
; filament_density: 1.27
; filament_diameter: 1.75
; max_z_height: 25.40
; HEADER_BLOCK_END

; THUMBNAIL_BLOCK_START

;
; THUMBNAIL_BLOCK_END

; external perimeters extrusion width = 0.42mm
; perimeters extrusion width = 0.45mm
; infill extrusion width = 0.45mm
; solid infill extrusion width = 0.42mm
; top infill extrusion width = 0.42mm
; first layer extrusion width = 0.50mm

; external perimeters extrusion width = 0.42mm
; perimeters extrusion width = 0.45mm
; infill extrusion width = 0.45mm
; solid infill extrusion width = 0.42mm
; top infill extrusion width = 0.42mm
; first layer extrusion width = 0.50mm

; external perimeters extrusion width = 0.42mm
; perimeters extrusion width = 0.45mm
; infill extrusion width = 0.45mm
; solid infill extrusion width = 0.42mm
; top infill extrusion width = 0.42mm
; first layer extrusion width = 0.50mm

; external perimeters extrusion width = 0.42mm
; perimeters extrusion width = 0.45mm
; infill extrusion width = 0.45mm
; solid infill extrusion width = 0.42mm
; top infill extrusion width = 0.42mm
; first layer extrusion width = 0.50mm

; EXECUTABLE_BLOCK_START
M73 P0 R40
M106 S0
M106 P2 S0
;TYPE:Custom
M190 S70
M104 S255
G90
M83
G1 Z5 F6000
G1 E-1.5 F800
G1 X110 Y-110 F6000
G1 E2 F800
G1 Y-110 X55 Z0.25 F4800
G1 X-55 E8 F2400
G1 Y-109.6 F2400
G1 X55 E5 F2400
G1 Y-110 X55 Z0.45 F4800
G1 X-55 E8 F2400
G1 Y-109.6 F2400
G1 X55 E5 F2400
G92 E0
G90
G21
M83 ; use relative distances for extrusion
; filament start gcode 
;right_extruder_material:PETG
SET_PRESSURE_ADVANCE ADVANCE=0.046; Override pressure advance value
M106 S0
M106 P2 S0
;LAYER_CHANGE
;Z:0.2
;HEIGHT:0.2
;BEFORE_LAYER_CHANGE
;0.2
G1 E-.8 F2100
;AFTER_LAYER_CHANGE
;0.2
;_SET_FAN_SPEED_CHANGING_LAYER
SET_VELOCITY_LIMIT ACCEL=500
G1 X17.959 Y26.998 F30000
G1 Z.4
G1 Z.2
G1 E.8 F2100
;TYPE:Inner wall
;WIDTH:0.5
G1 F3000
G3 X22.615 Y25.835 I4.427 J7.823 E.18464
G3 X26.596 Y26.998 I-.52 J9.176 E.15897
G1 X26.595 Y35.192 E.31141
G1 X17.959 Y35.192 E.32825
G1 X17.959 Y27.038 E.30989
G1 X17.502 Y26.732 F30000
;TYPE:Outer wall
G1 F3000
G3 X22.634 Y25.379 I4.867 J8.046 E.20451
G3 X27.053 Y26.733 I-.504 J9.532 E.1774
G1 X27.053 Y35.649 E.33887
G1 X17.502 Y35.649 E.36299
G1 X17.502 Y26.772 E.33737
G1 E-.8 F2100
;WIPE_START
G1 F3000
G1 X18.109 Y26.4
G1 X18.703 Y26.124
G1 X19.295 Y25.9
;WIPE_END
G1 X24.778 Y26.413 Z.6 F30000
G1 Z.2
G1 E.8 F2100
;TYPE:Bottom surface
;WIDTH:0.502641
G1 F4800
G1 X26.207 Y27.842 E.07724
G1 X26.207 Y28.492 E.02485
G1 X24.164 Y26.448 E.11047
G2 X23.359 Y26.294 I-1.702 J6.697 E.03133
G1 X26.207 Y29.142 E.15396
G1 X26.207 Y29.792 E.02485
G1 X22.643 Y26.228 E.19269
G2 X21.99 Y26.225 I-.377 J12.189 E.02496
G1 X26.207 Y30.442 E.22799
G1 X26.207 Y31.092 E.02485
G1 X21.387 Y26.272 E.26058
G1 X20.822 Y26.357 E.02184
G1 X26.207 Y31.742 E.29112
G1 X26.207 Y32.393 E.02485
G1 X20.29 Y26.475 E.31989
G1 X19.785 Y26.621 E.02008
G1 X26.207 Y33.043 E.34717
G1 X26.207 Y33.693 E.02485
G1 X19.306 Y26.791 E.37309
G1 X18.85 Y26.986 E.01894
G1 X26.207 Y34.343 E.39772
G1 X26.207 Y34.803 E.0176
G1 X26.017 Y34.803 E.00726
G1 X18.415 Y27.201 E.41097
G1 X18.348 Y27.236 E.0029
G1 X18.347 Y27.784 E.02095
G1 X25.367 Y34.803 E.37947
G1 X24.717 Y34.803 E.02485
G1 X18.347 Y28.434 E.34432
G1 X18.347 Y29.084 E.02485
G1 X24.067 Y34.803 E.30918
G1 X23.417 Y34.803 E.02485
G1 X18.347 Y29.734 E.27403
G1 X18.347 Y30.384 E.02485
G1 X22.766 Y34.803 E.23889
G1 X22.116 Y34.803 E.02485
G1 X18.347 Y31.034 E.20374
G1 X18.347 Y31.685 E.02485
G1 X21.466 Y34.803 E.16859
G1 X20.816 Y34.803 E.02485
G1 X18.347 Y32.335 E.13345
G1 X18.347 Y32.985 E.02485
G1 X20.166 Y34.803 E.0983
G1 X19.516 Y34.803 E.02485
G1 X18.347 Y33.635 E.06315
G1 X18.347 Y34.285 E.02485
G1 X19.071 Y35.009 E.03913
G1 E-.8 F2100
;WIPE_START
G1 F4800
G1 X18.347 Y34.285
G1 X18.347 Y33.635
G1 X18.578 Y33.866
;WIPE_END
G1 X24.442 Y28.98 Z.6 F30000
M73 P0 R39
G1 X26.367 Y27.376 Z.6
G1 Z.2
G1 E.8 F2100
;TYPE:Gap infill
;WIDTH:0.379764
G1 F3000
G1 X26.166 Y27.228 E.00699
;WIDTH:0.337908
G1 X25.965 Y27.081 E.00612
;WIDTH:0.295059
G1 X25.861 Y27.009 E.00265
;WIDTH:0.251217
G1 X25.756 Y26.937 E.00219
;WIDTH:0.207375
G1 X25.652 Y26.865 E.00173
;WIDTH:0.163533
G1 X25.548 Y26.793 E.00127
;WIDTH:0.141612
G1 X25.444 Y26.722 E.00104
G1 E-.8 F2100
;WIPE_START
G1 F3000
G1 X25.548 Y26.793
;WIPE_END
G1 X27.839 Y19.513 Z.6 F30000
G1 X37.127 Y-10.013 Z.6
G1 Z.2
G1 E.8 F2100
;TYPE:Inner wall
;WIDTH:0.5
G1 F3000
G3 X41.783 Y-11.175 I4.427 J7.823 E.18464
M73 P1 R39
G3 X45.764 Y-10.013 I-.52 J9.176 E.15897
G1 X45.764 Y-1.819 E.31141
G1 X37.127 Y-1.819 E.32825
G1 X37.127 Y-9.973 E.30989
G1 X36.67 Y-10.279 F30000
;TYPE:Outer wall
G1 F3000
G3 X41.803 Y-11.632 I4.867 J8.046 E.20451
G3 X46.221 Y-10.278 I-.504 J9.532 E.1774
G1 X46.221 Y-1.362 E.33887
G1 X36.67 Y-1.362 E.36299
G1 X36.67 Y-10.239 E.33737
G1 E-.8 F2100
;WIPE_START
G1 F3000
G1 X37.277 Y-10.61
G1 X37.871 Y-10.887
G1 X38.463 Y-11.111
;WIPE_END
G1 X43.947 Y-10.598 Z.6 F30000
G1 Z.2
G1 E.8 F2100
;TYPE:Bottom surface
;WIDTH:0.502641
G1 F4800
G1 X45.375 Y-9.169 E.07724
G1 X45.375 Y-8.519 E.02485
G1 X43.332 Y-10.562 E.11047
G2 X42.527 Y-10.717 I-1.702 J6.697 E.03133
G1 X45.375 Y-7.869 E.15396
G1 X45.375 Y-7.219 E.02485
G1 X41.811 Y-10.783 E.19269
G2 X41.158 Y-10.786 I-.377 J12.189 E.02496
G1 X45.375 Y-6.569 E.22799
G1 X45.375 Y-5.918 E.02485
G1 X40.555 Y-10.739 E.26058
G1 X39.99 Y-10.654 E.02184
G1 X45.375 Y-5.268 E.29112
G1 X45.375 Y-4.618 E.02485
G1 X39.458 Y-10.536 E.31989
G1 X38.953 Y-10.39 E.02008
G1 X45.375 Y-3.968 E.34717
G1 X45.375 Y-3.318 E.02485
G1 X38.474 Y-10.219 E.37309
G1 X38.018 Y-10.025 E.01894
G1 X45.375 Y-2.668 E.39772
G1 X45.375 Y-2.207 E.0176
G1 X45.185 Y-2.208 E.00726
G1 X37.583 Y-9.81 E.41097
G1 X37.516 Y-9.775 E.0029
G1 X37.516 Y-9.227 E.02095
G1 X44.535 Y-2.208 E.37947
G1 X43.885 Y-2.208 E.02485
G1 X37.516 Y-8.577 E.34432
G1 X37.516 Y-7.927 E.02485
G1 X43.235 Y-2.208 E.30918
G1 X42.585 Y-2.208 E.02485
G1 X37.516 Y-7.277 E.27403
G1 X37.516 Y-6.626 E.02485
G1 X41.935 Y-2.208 E.23889
G1 X41.284 Y-2.208 E.02485
G1 X37.516 Y-5.976 E.20374
G1 X37.516 Y-5.326 E.02485
G1 X40.634 Y-2.208 E.16859
G1 X39.984 Y-2.208 E.02485
G1 X37.516 Y-4.676 E.13345
G1 X37.516 Y-4.026 E.02485
G1 X39.334 Y-2.208 E.0983
G1 X38.684 Y-2.208 E.02485
G1 X37.516 Y-3.376 E.06315
G1 X37.516 Y-2.726 E.02485
G1 X38.239 Y-2.002 E.03913
G1 E-.8 F2100
;WIPE_START
G1 F4800
G1 X37.516 Y-2.726
G1 X37.516 Y-3.376
G1 X37.746 Y-3.145
;WIPE_END
G1 X43.61 Y-8.031 Z.6 F30000
G1 X45.535 Y-9.635 Z.6
G1 Z.2
G1 E.8 F2100
;TYPE:Gap infill
;WIDTH:0.379764
G1 F3000
G1 X45.334 Y-9.782 E.00699
;WIDTH:0.337908
G1 X45.133 Y-9.93 E.00612
;WIDTH:0.295059
G1 X45.029 Y-10.002 E.00265
;WIDTH:0.251217
G1 X44.925 Y-10.074 E.00219
;WIDTH:0.207375
G1 X44.82 Y-10.146 E.00173
;WIDTH:0.163533
G1 X44.716 Y-10.217 E.00127
;WIDTH:0.141612
G1 X44.612 Y-10.289 E.00104
G1 E-.8 F2100
;WIPE_START
G1 F3000
G1 X44.716 Y-10.217
;WIPE_END
G1 X37.085 Y-10.083 Z.6 F30000
G1 X-4.318 Y-9.354 Z.6
G1 Z.2
G1 E.8 F2100
;TYPE:Inner wall
;WIDTH:0.5
G1 F3000
G3 X.338 Y-10.516 I4.427 J7.823 E.18464
G3 X4.319 Y-9.354 I-.52 J9.176 E.15897
G1 X4.318 Y-1.16 E.31141
G1 X-4.318 Y-1.16 E.32825
G1 X-4.318 Y-9.314 E.30989
G1 X-4.775 Y-9.62 F30000
;TYPE:Outer wall
G1 F3000
G3 X.357 Y-10.973 I4.867 J8.046 E.20451
G3 X4.776 Y-9.619 I-.504 J9.532 E.1774
G1 X4.776 Y-.703 E.33887
G1 X-4.775 Y-.703 E.36299
G1 X-4.775 Y-9.58 E.33737
G1 E-.8 F2100
;WIPE_START
G1 F3000
G1 X-4.168 Y-9.951
G1 X-3.574 Y-10.228
G1 X-2.982 Y-10.452
;WIPE_END
G1 X2.501 Y-9.939 Z.6 F30000
G1 Z.2
G1 E.8 F2100
;TYPE:Bottom surface
;WIDTH:0.502641
G1 F4800
G1 X3.93 Y-8.51 E.07724
G1 X3.93 Y-7.86 E.02485
G1 X1.887 Y-9.904 E.11047
G2 X1.082 Y-10.058 I-1.702 J6.697 E.03133
G1 X3.93 Y-7.21 E.15396
G1 X3.93 Y-6.56 E.02485
G1 X.366 Y-10.124 E.19269
G2 X-.287 Y-10.127 I-.377 J12.189 E.02496
G1 X3.93 Y-5.91 E.22799
G1 X3.93 Y-5.26 E.02485
G1 X-.89 Y-10.08 E.26058
G1 X-1.455 Y-9.995 E.02184
G1 X3.93 Y-4.609 E.29112
G1 X3.93 Y-3.959 E.02485
G1 X-1.987 Y-9.877 E.31989
G1 X-2.492 Y-9.731 E.02008
G1 X3.93 Y-3.309 E.34717
G1 X3.93 Y-2.659 E.02485
G1 X-2.971 Y-9.56 E.37309
G1 X-3.427 Y-9.366 E.01894
G1 X3.93 Y-2.009 E.39772
G1 X3.93 Y-1.549 E.0176
G1 X3.74 Y-1.549 E.00726
G1 X-3.862 Y-9.151 E.41097
G1 X-3.929 Y-9.116 E.0029
G1 X-3.929 Y-8.568 E.02095
G1 X3.09 Y-1.549 E.37947
G1 X2.44 Y-1.549 E.02485
G1 X-3.93 Y-7.918 E.34432
G1 X-3.93 Y-7.268 E.02485
G1 X1.79 Y-1.549 E.30918
G1 X1.14 Y-1.549 E.02485
G1 X-3.93 Y-6.618 E.27403
G1 X-3.93 Y-5.968 E.02485
G1 X.489 Y-1.549 E.23889
G1 X-.161 Y-1.549 E.02485
G1 X-3.93 Y-5.317 E.20374
G1 X-3.93 Y-4.667 E.02485
G1 X-.811 Y-1.549 E.16859
G1 X-1.461 Y-1.549 E.02485
G1 X-3.93 Y-4.017 E.13345
G1 X-3.93 Y-3.367 E.02485
G1 X-2.111 Y-1.549 E.0983
G1 X-2.761 Y-1.549 E.02485
G1 X-3.93 Y-2.717 E.06315
G1 X-3.93 Y-2.067 E.02485
G1 X-3.206 Y-1.343 E.03913
G1 E-.8 F2100
;WIPE_START
G1 F4800
G1 X-3.93 Y-2.067
G1 X-3.93 Y-2.717
G1 X-3.699 Y-2.486
;WIPE_END
G1 X2.165 Y-7.372 Z.6 F30000
G1 X4.09 Y-8.976 Z.6
G1 Z.2
G1 E.8 F2100
;TYPE:Gap infill
;WIDTH:0.379764
G1 F3000
G1 X3.889 Y-9.123 E.00699
;WIDTH:0.337908
G1 X3.688 Y-9.271 E.00612
;WIDTH:0.295059
G1 X3.584 Y-9.343 E.00265
;WIDTH:0.251217
G1 X3.479 Y-9.415 E.00219
;WIDTH:0.207375
G1 X3.375 Y-9.487 E.00173
;WIDTH:0.163533
G1 X3.271 Y-9.559 E.00127
;WIDTH:0.141612
G1 X3.167 Y-9.63 E.00104
G1 E-.8 F2100
;WIPE_START
G1 F3000
G1 X3.271 Y-9.559
;WIPE_END
G1 X2.101 Y-17.101 Z.6 F30000
G1 X-2.586 Y-47.308 Z.6
G1 Z.2
G1 E.8 F2100
;TYPE:Inner wall
;WIDTH:0.5
G1 F3000
G3 X2.07 Y-48.471 I4.427 J7.823 E.18464
G3 X6.051 Y-47.308 I-.52 J9.176 E.15897
G1 X6.051 Y-39.115 E.31141
G1 X-2.586 Y-39.115 E.32825
G1 X-2.586 Y-47.268 E.30989
G1 X-3.043 Y-47.574 F30000
;TYPE:Outer wall
G1 F3000
G3 X2.09 Y-48.928 I4.867 J8.046 E.20451
G3 X6.508 Y-47.574 I-.504 J9.532 E.1774
G1 X6.508 Y-38.658 E.33887
G1 X-3.043 Y-38.658 E.36299
G1 X-3.043 Y-47.534 E.33737
G1 E-.8 F2100
;WIPE_START
G1 F3000
G1 X-2.436 Y-47.906
G1 X-1.842 Y-48.183
G1 X-1.25 Y-48.406
;WIPE_END
G1 X4.234 Y-47.893 Z.6 F30000
G1 Z.2
G1 E.8 F2100
;TYPE:Bottom surface
;WIDTH:0.502641
G1 F4800
G1 X5.662 Y-46.465 E.07724
G1 X5.662 Y-45.815 E.02485
G1 X3.619 Y-47.858 E.11047
G2 X2.814 Y-48.012 I-1.702 J6.697 E.03133
G1 X5.662 Y-45.164 E.15396
G1 X5.662 Y-44.514 E.02485
G1 X2.098 Y-48.079 E.19269
G2 X1.445 Y-48.082 I-.377 J12.189 E.02496
G1 X5.662 Y-43.864 E.22799
G1 X5.662 Y-43.214 E.02485
G1 X.842 Y-48.034 E.26058
G1 X.277 Y-47.949 E.02184
G1 X5.662 Y-42.564 E.29112
G1 X5.662 Y-41.914 E.02485
G1 X-.255 Y-47.831 E.31989
G1 X-.76 Y-47.686 E.02008
G1 X5.662 Y-41.264 E.34717
G1 X5.662 Y-40.614 E.02485
G1 X-1.239 Y-47.515 E.37309
G1 X-1.695 Y-47.32 E.01894
G1 X5.662 Y-39.963 E.39772
G1 X5.662 Y-39.503 E.0176
G1 X5.472 Y-39.503 E.00726
G1 X-2.13 Y-47.105 E.41097
G1 X-2.197 Y-47.071 E.0029
G1 X-2.197 Y-46.523 E.02095
G1 X4.822 Y-39.503 E.37947
G1 X4.172 Y-39.503 E.02485
G1 X-2.197 Y-45.872 E.34432
G1 X-2.197 Y-45.222 E.02485
G1 X3.522 Y-39.503 E.30918
G1 X2.872 Y-39.503 E.02485
G1 X-2.197 Y-44.572 E.27403
M73 P2 R39
G1 X-2.197 Y-43.922 E.02485
G1 X2.222 Y-39.503 E.23889
G1 X1.571 Y-39.503 E.02485
G1 X-2.197 Y-43.272 E.20374
G1 X-2.197 Y-42.622 E.02485
G1 X.921 Y-39.503 E.16859
G1 X.271 Y-39.503 E.02485
G1 X-2.197 Y-41.972 E.13345
G1 X-2.197 Y-41.322 E.02485
G1 X-.379 Y-39.503 E.0983
G1 X-1.029 Y-39.503 E.02485
G1 X-2.197 Y-40.671 E.06315
G1 X-2.197 Y-40.021 E.02485
G1 X-1.474 Y-39.298 E.03913
G1 E-.8 F2100
;WIPE_START
G1 F4800
G1 X-2.197 Y-40.021
G1 X-2.197 Y-40.671
G1 X-1.967 Y-40.441
;WIPE_END
G1 X3.897 Y-45.326 Z.6 F30000
G1 X5.822 Y-46.93 Z.6
G1 Z.2
G1 E.8 F2100
;TYPE:Gap infill
;WIDTH:0.379764
G1 F3000
G1 X5.621 Y-47.078 E.00699
;WIDTH:0.337908
G1 X5.42 Y-47.226 E.00612
;WIDTH:0.295059
G1 X5.316 Y-47.298 E.00265
;WIDTH:0.251217
G1 X5.212 Y-47.369 E.00219
;WIDTH:0.207375
G1 X5.108 Y-47.441 E.00173
;WIDTH:0.163533
G1 X5.003 Y-47.513 E.00127
;WIDTH:0.141612
G1 X4.899 Y-47.585 E.00104
M106 S209
M106 P2 S127
;LAYER_CHANGE
;Z:0.4
;HEIGHT:0.2
;BEFORE_LAYER_CHANGE
;0.4
G1 E-.8 F2100
;WIPE_START
G1 F3000
G1 X5.003 Y-47.513
;WIPE_END
;AFTER_LAYER_CHANGE
;0.4
;_SET_FAN_SPEED_CHANGING_LAYER
SET_VELOCITY_LIMIT ACCEL=10000
M140 S70 ; set bed temperature
G17
G3 Z.6 I-1.199 J.206 P1  F30000
G1 X17.704 Y26.585 Z.6
G1 Z.4
G1 E.8 F2100
SET_VELOCITY_LIMIT ACCEL=5000
;TYPE:Inner wall
;WIDTH:0.45
G1 F8843.478
G3 X22.612 Y25.318 I4.686 J8.015 E.17379
G3 X26.851 Y26.585 I-.552 J9.567 E.1511
G1 X26.85 Y35.599 E.30512
G1 X17.704 Y35.599 E.3096
G1 X17.704 Y26.625 E.30377
SET_VELOCITY_LIMIT ACCEL=10000
G1 X17.312 Y26.362 F30000
SET_VELOCITY_LIMIT ACCEL=5000
;TYPE:Outer wall
;WIDTH:0.42
G1 F1699.212
G1 X17.862 Y26.052 E.0198
G1 F1647.074
G1 X18.298 Y25.835 E.01527
G1 F1572.689
G1 X18.997 Y25.538 E.02381
G1 F1545.718
G1 X19.594 Y25.333 E.01979
SET_VELOCITY_LIMIT ACCEL=2500
;TYPE:Overhang wall
;WIDTH:0.45
G1 F935.733
G1 X20.151 Y25.177 E.01958
G1 F915.792
G1 X20.967 Y25.017 E.02815
G1 F906.984
G1 X21.779 Y24.933 E.02763
G1 F905.069
G1 X22.318 Y24.92 E.01825
G1 X23.001 Y24.949 E.02314
G1 F907.429
G1 X23.746 Y25.042 E.02541
G1 F919.52
G1 X24.488 Y25.198 E.02566
G1 F942.464
G1 X24.939 Y25.326 E.01587
SET_VELOCITY_LIMIT ACCEL=5000
;TYPE:Outer wall
;WIDTH:0.42
G1 F1545.716
G1 X25.723 Y25.603 E.02607
G1 F1586.041
G1 X26.115 Y25.77 E.01336
G1 F1628.512
G1 X26.764 Y26.09 E.02269
G1 F1698.026
G1 X27.243 Y26.362 E.01727
G1 F1768.098
G1 X27.243 Y26.38 E.00056
M106 S209
G1 F1909.411
G1 X27.243 Y27.22 E.02634
G1 F9547.055
G1 X27.243 Y35.209 E.25049
G1 F6086.125
G1 X27.243 Y35.991 E.02452
G1 X26.46 Y35.991 E.02455
G1 X18.094 Y35.991 E.26231
G1 X17.312 Y35.991 E.02452
M106 S209
G1 X17.312 Y35.209 E.02452
G1 F9547.055
G1 X17.312 Y27.223 E.2504
G1 F3287.467
G1 X17.312 Y26.402 E.02574
SET_VELOCITY_LIMIT ACCEL=10000
G1 E-.8 F2100
;WIPE_START
G1 F3287.467
G1 X17.862 Y26.052
G1 X18.298 Y25.835
G1 X18.997 Y25.538
G1 X19.093 Y25.505
;WIPE_END
G1 X24.044 Y31.313 Z.8 F30000
G1 X26.687 Y34.414 Z.8
G1 Z.4
G1 E.8 F2100
SET_VELOCITY_LIMIT ACCEL=7000
;TYPE:Internal solid infill
;WIDTH:0.427297
G1 F9365.804
M106 S209
G1 X25.835 Y35.266 E.03851
G1 X25.291 Y35.266 E.01737
G1 X26.517 Y34.04 E.05541
G1 X26.517 Y33.497 E.01737
G1 X24.748 Y35.266 E.07998
G1 X24.204 Y35.266 E.01737
G1 X26.517 Y32.953 E.10455
G1 X26.517 Y32.409 E.01737
G1 X23.661 Y35.266 E.12912
G1 X23.117 Y35.266 E.01737
G1 X26.517 Y31.866 E.15369
G1 X26.517 Y31.322 E.01737
G1 X22.573 Y35.266 E.17826
G1 X22.03 Y35.266 E.01737
G1 X26.517 Y30.779 E.20283
G1 X26.517 Y30.235 E.01737
G1 X21.486 Y35.266 E.2274
G1 X20.943 Y35.266 E.01737
G1 X26.517 Y29.691 E.25198
G1 X26.517 Y29.148 E.01737
G1 X20.399 Y35.266 E.27655
G1 X19.855 Y35.266 E.01737
G1 X26.517 Y28.604 E.30112
G1 X26.517 Y28.061 E.01737
G1 X19.312 Y35.266 E.32569
G1 X18.768 Y35.266 E.01737
G1 X26.517 Y27.517 E.35026
G1 X26.517 Y26.973 E.01737
G1 X18.225 Y35.266 E.37483
G1 X18.037 Y35.266 E.006
G1 X18.037 Y34.91 E.01138
G1 X26.279 Y26.668 E.37255
G1 X25.92 Y26.484 E.01291
G1 X18.037 Y34.366 E.35629
G1 X18.037 Y33.823 E.01737
G1 X25.54 Y26.32 E.33912
G1 X25.152 Y26.164 E.01336
G1 X18.037 Y33.279 E.32158
G1 X18.037 Y32.736 E.01737
G1 X24.747 Y26.026 E.30328
G2 X24.324 Y25.905 I-1.551 J4.639 E.01406
G1 X18.037 Y32.192 E.28415
G1 X18.037 Y31.648 E.01737
G1 X23.875 Y25.81 E.26389
G2 X23.411 Y25.731 I-.707 J2.741 E.01507
G1 X18.037 Y31.105 E.2429
G1 X18.037 Y30.561 E.01737
G1 X22.927 Y25.671 E.22103
G2 X22.405 Y25.65 I-.458 J4.811 E.01671
G1 X18.037 Y30.018 E.19742
G1 X18.037 Y29.474 E.01737
G1 X21.85 Y25.661 E.17233
G2 X21.256 Y25.711 I.11 J4.866 E.01905
G1 X18.037 Y28.93 E.1455
G1 X18.037 Y28.387 E.01737
G1 X20.595 Y25.829 E.11563
G2 X19.873 Y26.008 I1.188 J6.347 E.0238
G1 X18.037 Y27.843 E.08297
G1 X18.037 Y27.3 E.01737
G1 X19.323 Y26.014 E.05812
SET_VELOCITY_LIMIT ACCEL=10000
G1 X18.715 Y26.325 F30000
;TYPE:Gap infill
;WIDTH:0.102209
G1 F12000
G1 X18.644 Y26.372 E.00042
;WIDTH:0.130284
G1 X18.574 Y26.42 E.00062
;WIDTH:0.168797
G1 X18.407 Y26.542 E.00216
;WIDTH:0.217742
G1 X18.241 Y26.664 E.003
;WIDTH:0.266688
