; HEADER_BLOCK_START
; generated by OrcaSlicer 2.0.0 on 2024-12-01 at 00:37:20
; total layer number: 48
; filament_density: 1.27
; filament_diameter: 1.75
; max_z_height: 9.60
; HEADER_BLOCK_END

; THUMBNAIL_BLOCK_START

;
; THUMBNAIL_BLOCK_END

; external perimeters extrusion width = 0.42mm
; perimeters extrusion width = 0.45mm
; infill extrusion width = 0.45mm
; solid infill extrusion width = 0.42mm
; top infill extrusion width = 0.42mm
; first layer extrusion width = 0.50mm

; external perimeters extrusion width = 0.42mm
; perimeters extrusion width = 0.45mm
; infill extrusion width = 0.45mm
; solid infill extrusion width = 0.42mm
; top infill extrusion width = 0.42mm
; first layer extrusion width = 0.50mm

; external perimeters extrusion width = 0.42mm
; perimeters extrusion width = 0.45mm
; infill extrusion width = 0.45mm
; solid infill extrusion width = 0.42mm
; top infill extrusion width = 0.42mm
; first layer extrusion width = 0.50mm

; EXECUTABLE_BLOCK_START
M73 P0 R4
M106 S0
M106 P2 S0
;TYPE:Custom
M190 S70
M104 S255
G90
M83
G1 Z5 F6000
G1 E-1.5 F800
G1 X110 Y-110 F6000
M73 P0 R3
G1 E2 F800
G1 Y-110 X55 Z0.25 F4800
M73 P1 R3
G1 X-55 E8 F2400
M73 P2 R3
G1 Y-109.6 F2400
G1 X55 E5 F2400
M73 P3 R3
G1 Y-110 X55 Z0.45 F4800
G1 X-55 E8 F2400
M73 P4 R3
G1 Y-109.6 F2400
G1 X55 E5 F2400
G92 E0
G90
G21
M83 ; use relative distances for extrusion
; filament start gcode 
;right_extruder_material:PETG
SET_PRESSURE_ADVANCE ADVANCE=0.046; Override pressure advance value
M106 S0
M106 P2 S0
;LAYER_CHANGE
;Z:0.2
;HEIGHT:0.2
;BEFORE_LAYER_CHANGE
;0.2
M73 P5 R3
G1 E-.8 F2100
;AFTER_LAYER_CHANGE
;0.2
;_SET_FAN_SPEED_CHANGING_LAYER
SET_VELOCITY_LIMIT ACCEL=500
G1 X-25.316 Y-4.108 F30000
M73 P6 R3
G1 Z.4
G1 Z.2
G1 E.8 F2100
;TYPE:Inner wall
;WIDTH:0.5
G1 F2352
G1 X-25.017 Y-3.984 E.0123
G3 X-26.325 Y-4.286 I-1.339 J2.82 E.69397
G1 X-26.163 Y-4.28 E.00615
G3 X-25.353 Y-4.121 I-.193 J3.115 E.03146
G1 X-25.143 Y-4.531 F30000
;TYPE:Outer wall
G1 F2352
G1 X-24.821 Y-4.397 E.01324
G3 X-26.321 Y-4.743 I-1.535 J3.232 E.79554
G1 X-26.135 Y-4.737 E.00707
G3 X-25.18 Y-4.545 I-.221 J3.571 E.03712
G1 X-25.224 Y-3.874 F30000
;TYPE:Bottom surface
;WIDTH:0.536667
G1 F2352
G1 X-24.219 Y-2.868 E.05836
G3 X-23.655 Y-1.606 I-2.37 J1.817 E.0573
G1 X-25.899 Y-3.85 E.13029
G2 X-26.627 Y-3.879 I-.464 J2.451 E.03001
G1 X-23.635 Y-.887 E.1737
G3 X-23.757 Y-.311 I-2.784 J-.289 E.02423
G1 X-27.206 Y-3.76 E.20023
M73 P7 R3
G2 X-27.69 Y-3.547 I1.292 J3.591 E.02177
G1 X-23.971 Y.173 E.21597
G3 X-24.255 Y.587 I-1.644 J-.824 E.02068
G1 X-28.103 Y-3.261 E.22342
G2 X-28.451 Y-2.911 I1.934 J2.272 E.02029
G1 X-24.602 Y.939 E.22351
G3 X-25.018 Y1.221 I-1.506 J-1.771 E.02068
G1 X-28.736 Y-2.497 E.21587
G2 X-28.948 Y-2.011 I2.568 J1.415 E.02179
G1 X-25.501 Y1.436 E.20015
G3 X-26.079 Y1.556 I-1.673 J-6.603 E.02425
G1 X-29.068 Y-1.433 E.17353
G2 X-29.043 Y-.71 I1.696 J.304 E.02992
G1 X-26.801 Y1.532 E.13018
G3 X-28.05 Y.982 I.427 J-2.661 E.05662
G1 X-29.067 Y-.035 E.05905
G1 E-.8 F2100
;WIPE_START
G1 F4800
G1 X-28.05 Y.982
G1 X-27.826 Y1.142
G1 X-27.603 Y1.27
G1 X-27.576 Y1.281
;WIPE_END
G1 X-20.025 Y.165 Z.6 F30000
G1 X1.037 Y-2.946 Z.6
G1 Z.2
M73 P8 R3
G1 E.8 F2100
;TYPE:Inner wall
;WIDTH:0.5
G1 F2352
G1 X1.336 Y-2.822 E.0123
G3 X.027 Y-3.124 I-1.339 J2.82 E.69397
G1 X.189 Y-3.118 E.00615
G3 X.999 Y-2.959 I-.193 J3.115 E.03146
G1 X1.209 Y-3.369 F30000
;TYPE:Outer wall
G1 F2352
G1 X1.531 Y-3.235 E.01324
G3 X.031 Y-3.581 I-1.535 J3.232 E.79554
G1 X.217 Y-3.574 E.00707
G3 X1.172 Y-3.383 I-.221 J3.571 E.03712
G1 X1.128 Y-2.711 F30000
;TYPE:Bottom surface
;WIDTH:0.536667
G1 F2352
G1 X2.133 Y-1.706 E.05836
G3 X2.697 Y-.444 I-2.37 J1.817 E.0573
G1 X.453 Y-2.688 E.13029
G2 X-.274 Y-2.717 I-.464 J2.451 E.03001
G1 X2.717 Y.275 E.1737
G3 X2.595 Y.851 I-2.784 J-.289 E.02423
G1 X-.853 Y-2.598 E.20023
G2 X-1.338 Y-2.384 I1.292 J3.591 E.02177
G1 X2.382 Y1.335 E.21597
G3 X2.097 Y1.75 I-1.644 J-.824 E.02068
G1 X-1.751 Y-2.099 E.22342
G2 X-2.099 Y-1.748 I1.934 J2.272 E.02029
G1 X1.751 Y2.101 E.22351
M73 P9 R3
G3 X1.335 Y2.383 I-1.506 J-1.771 E.02068
G1 X-2.383 Y-1.335 E.21587
G2 X-2.596 Y-.849 I2.568 J1.415 E.02179
G1 X.851 Y2.598 E.20015
G3 X.273 Y2.718 I-1.673 J-6.603 E.02425
G1 X-2.716 Y-.271 E.17353
G2 X-2.691 Y.452 I1.696 J.304 E.02992
G1 X-.449 Y2.694 E.13018
G3 X-1.698 Y2.144 I.427 J-2.661 E.05662
G1 X-2.715 Y1.127 E.05905
G1 E-.8 F2100
;WIPE_START
G1 F4800
G1 X-1.698 Y2.144
G1 X-1.474 Y2.304
G1 X-1.251 Y2.432
G1 X-1.223 Y2.443
;WIPE_END
G1 X6.206 Y.696 Z.6 F30000
G1 X24.061 Y-3.502 Z.6
G1 Z.2
G1 E.8 F2100
;TYPE:Inner wall
;WIDTH:0.5
G1 F2352
G1 X24.36 Y-3.378 E.0123
G3 X23.052 Y-3.68 I-1.339 J2.82 E.69397
G1 X23.213 Y-3.674 E.00615
G3 X24.023 Y-3.515 I-.193 J3.115 E.03146
G1 X24.234 Y-3.925 F30000
;TYPE:Outer wall
G1 F2352
G1 X24.556 Y-3.791 E.01324
M73 P10 R3
G3 X23.056 Y-4.137 I-1.535 J3.232 E.79554
G1 X23.242 Y-4.13 E.00707
G3 X24.196 Y-3.939 I-.221 J3.571 E.03712
G1 X24.152 Y-3.267 F30000
;TYPE:Bottom surface
;WIDTH:0.536667
G1 F2352
G1 X25.158 Y-2.262 E.05836
G3 X25.722 Y-1 I-2.37 J1.817 E.0573
G1 X23.478 Y-3.244 E.13029
G2 X22.75 Y-3.273 I-.464 J2.451 E.03001
G1 X25.742 Y-.281 E.1737
G3 X25.62 Y.295 I-2.784 J-.289 E.02423
G1 X22.171 Y-3.154 E.20023
G2 X21.686 Y-2.94 I1.292 J3.591 E.02177
G1 X25.406 Y.779 E.21597
G3 X25.122 Y1.193 I-1.644 J-.824 E.02068
G1 X21.274 Y-2.655 E.22342
G2 X20.926 Y-2.305 I1.934 J2.272 E.02029
G1 X24.775 Y1.545 E.22351
G3 X24.359 Y1.827 I-1.506 J-1.771 E.02068
G1 X20.641 Y-1.891 E.21587
G2 X20.428 Y-1.405 I2.568 J1.415 E.02179
G1 X23.876 Y2.042 E.20015
G3 X23.297 Y2.162 I-1.673 J-6.603 E.02425
G1 X20.309 Y-.827 E.17353
M73 P11 R3
G2 X20.333 Y-.104 I1.696 J.304 E.02992
G1 X22.575 Y2.138 E.13018
G3 X21.327 Y1.588 I.427 J-2.661 E.05662
G1 X20.31 Y.571 E.05905
M106 S227
M106 P2 S127
;LAYER_CHANGE
;Z:0.4
;HEIGHT:0.2
;BEFORE_LAYER_CHANGE
;0.4
G1 E-.8 F2100
;WIPE_START
G1 F4800
G1 X21.327 Y1.588
G1 X21.551 Y1.748
G1 X21.774 Y1.876
G1 X21.801 Y1.887
;WIPE_END
;AFTER_LAYER_CHANGE
;0.4
;_SET_FAN_SPEED_CHANGING_LAYER
SET_VELOCITY_LIMIT ACCEL=10000
G17
G3 Z.6 I.16 J-1.206 P1  F30000
G1 X-25.231 Y-4.349 Z.6
G1 Z.4
G1 E.8 F2100
SET_VELOCITY_LIMIT ACCEL=5000
;TYPE:Inner wall
;WIDTH:0.45
G1 F3259
G1 X-24.908 Y-4.214 E.01184
G3 X-26.506 Y-4.538 I-1.45 J3.051 E.66273
G3 X-26.163 Y-4.535 I.15 J3.161 E.01161
G3 X-25.269 Y-4.361 I-.195 J3.373 E.03094
SET_VELOCITY_LIMIT ACCEL=10000
G1 X-25.082 Y-4.711 F30000
SET_VELOCITY_LIMIT ACCEL=5000
;TYPE:Outer wall
;WIDTH:0.42
G1 F3259
G1 X-24.74 Y-4.568 E.01163
G3 X-26.524 Y-4.93 I-1.618 J3.406 E.68515
G3 X-26.14 Y-4.927 I.167 J3.543 E.01205
G3 X-25.12 Y-4.724 I-.218 J3.764 E.03269
SET_VELOCITY_LIMIT ACCEL=10000
G1 E-.8 F2100
;WIPE_START
G1 F9547.055
G1 X-24.74 Y-4.568
G1 X-24.401 Y-4.389
G1 X-24.044 Y-4.144
G1 X-23.592 Y-3.732
G1 X-23.489 Y-3.608
;WIPE_END
G1 X-23.469 Y.256 Z.8 F30000
G1 Z.4
G1 E.8 F2100
SET_VELOCITY_LIMIT ACCEL=7000
;TYPE:Internal solid infill
;WIDTH:0.423215
G1 F3259
G1 X-24.286 Y1.073 E.03651
G3 X-25.517 Y1.766 I-2.059 J-2.215 E.04511
G1 X-23.428 Y-.323 E.09344
G2 X-23.313 Y-.976 I-1.881 J-.668 E.02106
G1 X-26.164 Y1.875 E.12751
G3 X-26.688 Y1.861 I-.195 J-2.47 E.01659
G1 X-23.33 Y-1.497 E.15017
G2 X-23.411 Y-1.953 I-4.681 J.604 E.01466
G1 X-27.14 Y1.775 E.16672
G1 X-27.539 Y1.637 E.01336
G1 X-23.556 Y-2.346 E.17812
M73 P12 R3
G1 X-23.73 Y-2.71 E.01275
G1 X-27.899 Y1.459 E.18642
G3 X-28.218 Y1.24 I.928 J-1.696 E.01225
G1 X-23.949 Y-3.029 E.19089
G2 X-24.202 Y-3.313 I-1.436 J1.021 E.01207
G1 X-28.504 Y.988 E.19236
G3 X-28.757 Y.704 I1.284 J-1.401 E.01207
G1 X-24.488 Y-3.565 E.19091
G2 X-24.813 Y-3.778 I-.945 J1.088 E.01232
G1 X-28.974 Y.383 E.18606
G3 X-29.153 Y.024 I1.746 J-1.095 E.0127
G1 X-25.166 Y-3.963 E.17827
G2 X-25.567 Y-4.1 I-.833 J1.771 E.01341
G1 X-29.292 Y-.374 E.16662
G3 X-29.372 Y-.833 I3.109 J-.772 E.01473
G1 X-26.025 Y-4.179 E.14964
G2 X-26.543 Y-4.199 I-.36 J2.657 E.01642
G1 X-29.388 Y-1.355 E.12718
G3 X-29.266 Y-2.015 I2.688 J.156 E.02127
G1 X-27.194 Y-4.086 E.09264
G2 X-28.443 Y-3.375 I.879 J2.995 E.04588
G1 X-29.229 Y-2.589 E.03513
SET_VELOCITY_LIMIT ACCEL=10000
G1 E-.8 F2100
;WIPE_START
G1 F9466.335
G1 X-28.443 Y-3.375
G1 X-28.226 Y-3.563
G1 X-27.993 Y-3.728
G1 X-27.727 Y-3.88
G1 X-27.718 Y-3.884
;WIPE_END
G1 X-20.088 Y-3.699 Z.8 F30000
G1 X1.122 Y-3.187 Z.8
G1 Z.4
G1 E.8 F2100
SET_VELOCITY_LIMIT ACCEL=5000
;TYPE:Inner wall
;WIDTH:0.45
G1 F3259
G1 X1.444 Y-3.052 E.01184
G3 X-.154 Y-3.376 I-1.45 J3.051 E.66273
G3 X.189 Y-3.373 I.15 J3.161 E.01161
G3 X1.084 Y-3.198 I-.195 J3.373 E.03094
SET_VELOCITY_LIMIT ACCEL=10000
G1 X1.27 Y-3.549 F30000
SET_VELOCITY_LIMIT ACCEL=5000
;TYPE:Outer wall
;WIDTH:0.42
G1 F3259
G1 X1.612 Y-3.406 E.01163
G3 X-.171 Y-3.767 I-1.618 J3.406 E.68515
G3 X.213 Y-3.765 I.167 J3.543 E.01205
G3 X1.232 Y-3.562 I-.218 J3.764 E.03269
SET_VELOCITY_LIMIT ACCEL=10000
G1 E-.8 F2100
;WIPE_START
M73 P13 R3
G1 F9547.055
G1 X1.612 Y-3.406
G1 X1.951 Y-3.226
G1 X2.308 Y-2.982
G1 X2.76 Y-2.57
G1 X2.863 Y-2.446
;WIPE_END
G1 X2.883 Y1.419 Z.8 F30000
G1 Z.4
G1 E.8 F2100
SET_VELOCITY_LIMIT ACCEL=7000
;TYPE:Internal solid infill
;WIDTH:0.423215
G1 F3259
G1 X2.066 Y2.235 E.03651
G3 X.835 Y2.929 I-2.059 J-2.215 E.04511
G1 X2.924 Y.839 E.09344
G2 X3.039 Y.186 I-1.881 J-.668 E.02106
G1 X.188 Y3.038 E.12751
G3 X-.335 Y3.023 I-.195 J-2.47 E.01659
G1 X3.023 Y-.335 E.15017
G2 X2.941 Y-.791 I-4.681 J.604 E.01466
G1 X-.787 Y2.937 E.16672
G1 X-1.187 Y2.799 E.01336
G1 X2.796 Y-1.184 E.17812
G1 X2.622 Y-1.548 E.01275
G1 X-1.547 Y2.621 E.18642
G3 X-1.866 Y2.402 I.928 J-1.696 E.01225
G1 X2.403 Y-1.866 E.19089
G2 X2.15 Y-2.151 I-1.436 J1.021 E.01207
G1 X-2.152 Y2.15 E.19236
G3 X-2.405 Y1.866 I1.284 J-1.401 E.01207
G1 X1.864 Y-2.403 E.19091
G2 X1.539 Y-2.616 I-.945 J1.088 E.01232
G1 X-2.622 Y1.545 E.18606
G3 X-2.801 Y1.186 I1.746 J-1.095 E.0127
G1 X1.186 Y-2.8 E.17827
G2 X.786 Y-2.938 I-.833 J1.771 E.01341
G1 X-2.94 Y.788 E.16662
G3 X-3.019 Y.329 I3.109 J-.772 E.01473
G1 X.327 Y-3.017 E.14964
G2 X-.191 Y-3.037 I-.36 J2.657 E.01642
G1 X-3.035 Y-.193 E.12718
G3 X-2.913 Y-.853 I2.688 J.156 E.02127
G1 X-.842 Y-2.924 E.09264
G2 X-2.091 Y-2.212 I.879 J2.995 E.04588
G1 X-2.877 Y-1.427 E.03513
SET_VELOCITY_LIMIT ACCEL=10000
G1 E-.8 F2100
;WIPE_START
G1 F9466.335
G1 X-2.091 Y-2.212
G1 X-1.874 Y-2.401
G1 X-1.641 Y-2.565
G1 X-1.375 Y-2.717
G1 X-1.366 Y-2.721
;WIPE_END
G1 X6.26 Y-3.027 Z.8 F30000
G1 X24.146 Y-3.743 Z.8
G1 Z.4
G1 E.8 F2100
SET_VELOCITY_LIMIT ACCEL=5000
;TYPE:Inner wall
;WIDTH:0.45
G1 F3259
G1 X24.469 Y-3.608 E.01184
G3 X22.871 Y-3.932 I-1.45 J3.051 E.66273
M73 P14 R3
G3 X23.214 Y-3.929 I.15 J3.161 E.01161
G3 X24.108 Y-3.755 I-.195 J3.373 E.03094
SET_VELOCITY_LIMIT ACCEL=10000
G1 X24.294 Y-4.105 F30000
SET_VELOCITY_LIMIT ACCEL=5000
;TYPE:Outer wall
;WIDTH:0.42
G1 F3259
G1 X24.637 Y-3.962 E.01163
G3 X22.853 Y-4.323 I-1.618 J3.406 E.68515
G3 X23.237 Y-4.321 I.167 J3.543 E.01205
G3 X24.257 Y-4.118 I-.218 J3.764 E.03269
SET_VELOCITY_LIMIT ACCEL=10000
G1 E-.8 F2100
;WIPE_START
G1 F9547.055
G1 X24.637 Y-3.962
G1 X24.976 Y-3.783
G1 X25.333 Y-3.538
G1 X25.785 Y-3.126
G1 X25.888 Y-3.002
;WIPE_END
G1 X25.907 Y.862 Z.8 F30000
G1 Z.4
G1 E.8 F2100
SET_VELOCITY_LIMIT ACCEL=7000
;TYPE:Internal solid infill
;WIDTH:0.423215
G1 F3259
G1 X25.091 Y1.679 E.03651
G3 X23.86 Y2.372 I-2.059 J-2.215 E.04511
G1 X25.949 Y.283 E.09344
G2 X26.064 Y-.37 I-1.881 J-.668 E.02106
G1 X23.213 Y2.482 E.12751
G3 X22.689 Y2.467 I-.195 J-2.47 E.01659
G1 X26.047 Y-.891 E.15017
G2 X25.965 Y-1.347 I-4.681 J.604 E.01466
G1 X22.237 Y2.381 E.16672
G1 X21.838 Y2.243 E.01336
G1 X25.821 Y-1.74 E.17812
G1 X25.647 Y-2.104 E.01275
G1 X21.478 Y2.065 E.18642
G3 X21.159 Y1.846 I.928 J-1.696 E.01225
G1 X25.428 Y-2.422 E.19089
G2 X25.175 Y-2.707 I-1.436 J1.021 E.01207
G1 X20.873 Y1.594 E.19236
G3 X20.619 Y1.31 I1.284 J-1.401 E.01207
G1 X24.888 Y-2.959 E.19091
G2 X24.563 Y-3.172 I-.945 J1.088 E.01232
G1 X20.403 Y.989 E.18606
G3 X20.224 Y.63 I1.746 J-1.095 E.0127
G1 X24.21 Y-3.356 E.17827
G2 X23.81 Y-3.494 I-.833 J1.771 E.01341
G1 X20.084 Y.232 E.16662
G3 X20.005 Y-.227 I3.109 J-.772 E.01473
G1 X23.352 Y-3.573 E.14964
G2 X22.833 Y-3.593 I-.36 J2.657 E.01642
G1 X19.989 Y-.749 E.12718
M73 P15 R3
G3 X20.111 Y-1.409 I2.688 J.156 E.02127
G1 X22.183 Y-3.48 E.09264
G2 X20.933 Y-2.769 I.879 J2.995 E.04588
G1 X20.148 Y-1.983 E.03513
;LAYER_CHANGE
;Z:0.6
;HEIGHT:0.2
;BEFORE_LAYER_CHANGE
;0.6
G1 E-.8 F2100
;WIPE_START
G1 F9466.335
G1 X20.933 Y-2.769
G1 X21.151 Y-2.957
G1 X21.384 Y-3.122
G1 X21.65 Y-3.274
G1 X21.659 Y-3.277
;WIPE_END
;AFTER_LAYER_CHANGE
;0.6
;_SET_FAN_SPEED_CHANGING_LAYER
SET_VELOCITY_LIMIT ACCEL=10000
G17
G3 Z.8 I.028 J-1.217 P1  F30000
G1 X-25.246 Y-4.352 Z.8
G1 Z.6
G1 E.8 F2100
SET_VELOCITY_LIMIT ACCEL=5000
;TYPE:Inner wall
;WIDTH:0.45
G1 F3145
G3 X-26.506 Y-4.538 I-1.114 J3.189 E.6751
G3 X-26.179 Y-4.536 I.147 J3.017 E.01108
G3 X-25.284 Y-4.365 I-.182 J3.373 E.03092
SET_VELOCITY_LIMIT ACCEL=10000
G1 X-25.096 Y-4.717 F30000
SET_VELOCITY_LIMIT ACCEL=5000
;TYPE:Outer wall
;WIDTH:0.42
G1 F3145
G1 X-24.741 Y-4.567 E.01209
G3 X-26.524 Y-4.93 I-1.62 J3.404 E.68514
G3 X-26.156 Y-4.927 I.164 J3.393 E.01154
G3 X-25.135 Y-4.728 I-.205 J3.765 E.03273
SET_VELOCITY_LIMIT ACCEL=10000
G1 X-24.928 Y-4.04 F30000
SET_VELOCITY_LIMIT ACCEL=7000
;TYPE:Internal solid infill
;WIDTH:0.423178
G1 F3145
G1 X-24.113 Y-3.224 E.03646
G3 X-23.427 Y-2.001 I-2.338 J2.114 E.04472
G1 X-25.51 Y-4.084 E.09314
G2 X-26.164 Y-4.2 I-.907 J3.201 E.02104
G1 X-23.315 Y-1.351 E.12739
G3 X-23.33 Y-.828 I-3.442 J.166 E.01657
G1 X-26.686 Y-4.185 E.15009
G2 X-27.142 Y-4.103 I.606 J4.702 E.01466
G1 X-23.413 Y-.374 E.16675
G3 X-23.555 Y.022 I-1.523 J-.324 E.01333
G1 X-27.54 Y-3.963 E.17816
G2 X-27.897 Y-3.782 I.703 J1.838 E.01268
G1 X-23.731 Y.384 E.18628
G3 X-23.948 Y.705 I-4.831 J-3.021 E.01225
G1 X-28.22 Y-3.567 E.19104
G2 X-28.504 Y-3.313 I1.107 J1.522 E.01204
G1 X-24.204 Y.986 E.19225
G3 X-24.492 Y1.236 I-.906 J-.753 E.01211
G1 X-28.755 Y-3.027 E.19061
M73 P16 R3
G2 X-28.973 Y-2.707 I1.47 J1.236 E.01226
G1 X-24.808 Y1.458 E.18623
G3 X-25.165 Y1.638 I-1.01 J-1.551 E.01268
G1 X-29.155 Y-2.351 E.17839
G2 X-29.291 Y-1.949 I2.189 J.964 E.01343
G1 X-25.564 Y1.778 E.16665
G3 X-26.019 Y1.86 I-.633 J-2.192 E.01465
G1 X-29.377 Y-1.498 E.15015
G2 X-29.388 Y-.971 I2.688 J.321 E.01668
G1 X-26.543 Y1.874 E.12724
G3 X-27.195 Y1.76 I.234 J-3.251 E.02097
G1 X-29.276 Y-.321 E.09305
G2 X-28.586 Y.906 I2.961 J-.856 E.0449
G1 X-27.776 Y1.717 E.03624
SET_VELOCITY_LIMIT ACCEL=10000
G1 E-.8 F2100
;WIPE_START
G1 F9467.256
G1 X-28.586 Y.906
G1 X-28.774 Y.684
G1 X-28.948 Y.43
G1 X-29.071 Y.207
;WIPE_END
G1 X-21.487 Y-.647 Z1 F30000
G1 X1.106 Y-3.19 Z1
G1 Z.6
G1 E.8 F2100
SET_VELOCITY_LIMIT ACCEL=5000
;TYPE:Inner wall
;WIDTH:0.45
G1 F3145
G3 X-.154 Y-3.376 I-1.114 J3.189 E.6751
G3 X.174 Y-3.374 I.147 J3.017 E.01108
G3 X1.068 Y-3.203 I-.182 J3.373 E.03092
SET_VELOCITY_LIMIT ACCEL=10000
G1 X1.256 Y-3.555 F30000
SET_VELOCITY_LIMIT ACCEL=5000
;TYPE:Outer wall
;WIDTH:0.42
G1 F3145
G1 X1.611 Y-3.405 E.01209
G3 X-.171 Y-3.767 I-1.62 J3.404 E.68514
G3 X.196 Y-3.765 I.164 J3.393 E.01154
G3 X1.218 Y-3.566 I-.205 J3.765 E.03273
SET_VELOCITY_LIMIT ACCEL=10000
G1 X1.424 Y-2.878 F30000
SET_VELOCITY_LIMIT ACCEL=7000
;TYPE:Internal solid infill
;WIDTH:0.423178
G1 F3145
G1 X2.24 Y-2.062 E.03646
G3 X2.925 Y-.839 I-2.338 J2.114 E.04472
G1 X.842 Y-2.922 E.09314
G2 X.188 Y-3.038 I-.907 J3.201 E.02104
G1 X3.037 Y-.189 E.12739
G3 X3.022 Y.334 I-3.442 J.166 E.01657
G1 X-.334 Y-3.023 E.15009
G2 X-.79 Y-2.941 I.606 J4.702 E.01466
G1 X2.939 Y.788 E.16675
M73 P17 R3
G3 X2.797 Y1.184 I-1.523 J-.324 E.01333
G1 X-1.187 Y-2.8 E.17816
G2 X-1.545 Y-2.62 I.703 J1.838 E.01268
G1 X2.621 Y1.546 E.18628
G3 X2.405 Y1.867 I-4.831 J-3.021 E.01225
G1 X-1.868 Y-2.405 E.19104
G2 X-2.152 Y-2.151 I1.107 J1.522 E.01204
G1 X2.148 Y2.148 E.19225
G3 X1.86 Y2.398 I-.906 J-.753 E.01211
G1 X-2.403 Y-1.865 E.19061
G2 X-2.621 Y-1.545 I1.47 J1.236 E.01226
G1 X1.544 Y2.62 E.18623
G3 X1.187 Y2.801 I-1.01 J-1.551 E.01268
G1 X-2.803 Y-1.189 E.17839
G2 X-2.938 Y-.787 I2.189 J.964 E.01343
G1 X.788 Y2.94 E.16665
G3 X.333 Y3.022 I-.633 J-2.192 E.01465
