; HEADER_BLOCK_START
; generated by OrcaSlicer 2.0.0 on 2024-12-01 at 21:49:49
; total layer number: 112
; filament_density: 1.27
; filament_diameter: 1.75
; max_z_height: 22.40
; HEADER_BLOCK_END

; THUMBNAIL_BLOCK_START

;
; THUMBNAIL_BLOCK_END

; external perimeters extrusion width = 0.42mm
; perimeters extrusion width = 0.45mm
; infill extrusion width = 0.45mm
; solid infill extrusion width = 0.42mm
; top infill extrusion width = 0.42mm
; first layer extrusion width = 0.50mm

; external perimeters extrusion width = 0.42mm
; perimeters extrusion width = 0.45mm
; infill extrusion width = 0.45mm
; solid infill extrusion width = 0.42mm
; top infill extrusion width = 0.42mm
; first layer extrusion width = 0.50mm

; external perimeters extrusion width = 0.42mm
; perimeters extrusion width = 0.45mm
; infill extrusion width = 0.45mm
; solid infill extrusion width = 0.42mm
; top infill extrusion width = 0.42mm
; first layer extrusion width = 0.50mm

; external perimeters extrusion width = 0.42mm
; perimeters extrusion width = 0.45mm
; infill extrusion width = 0.45mm
; solid infill extrusion width = 0.42mm
; top infill extrusion width = 0.42mm
; first layer extrusion width = 0.50mm

; external perimeters extrusion width = 0.42mm
; perimeters extrusion width = 0.45mm
; infill extrusion width = 0.45mm
; solid infill extrusion width = 0.42mm
; top infill extrusion width = 0.42mm
; first layer extrusion width = 0.50mm

; external perimeters extrusion width = 0.42mm
; perimeters extrusion width = 0.45mm
; infill extrusion width = 0.45mm
; solid infill extrusion width = 0.42mm
; top infill extrusion width = 0.42mm
; first layer extrusion width = 0.50mm

; external perimeters extrusion width = 0.42mm
; perimeters extrusion width = 0.45mm
; infill extrusion width = 0.45mm
; solid infill extrusion width = 0.42mm
; top infill extrusion width = 0.42mm
; first layer extrusion width = 0.50mm

; external perimeters extrusion width = 0.42mm
; perimeters extrusion width = 0.45mm
; infill extrusion width = 0.45mm
; solid infill extrusion width = 0.42mm
; top infill extrusion width = 0.42mm
; first layer extrusion width = 0.50mm

; EXECUTABLE_BLOCK_START
M73 P0 R33
M106 S0
M106 P2 S0
;TYPE:Custom
M190 S70
M104 S255
G90
M83
G1 Z5 F6000
G1 E-1.5 F800
G1 X110 Y-110 F6000
G1 E2 F800
G1 Y-110 X55 Z0.25 F4800
G1 X-55 E8 F2400
G1 Y-109.6 F2400
G1 X55 E5 F2400
G1 Y-110 X55 Z0.45 F4800
G1 X-55 E8 F2400
G1 Y-109.6 F2400
G1 X55 E5 F2400
G92 E0
G90
G21
M83 ; use relative distances for extrusion
; filament start gcode 
;right_extruder_material:PETG
SET_PRESSURE_ADVANCE ADVANCE=0.046; Override pressure advance value
M106 S0
M106 P2 S0
;LAYER_CHANGE
;Z:0.2
;HEIGHT:0.2
;BEFORE_LAYER_CHANGE
;0.2
G1 E-.8 F2100
;AFTER_LAYER_CHANGE
;0.2
;_SET_FAN_SPEED_CHANGING_LAYER
SET_VELOCITY_LIMIT ACCEL=500
G1 X76.913 Y-62 F30000
G1 Z.4
G1 Z.2
G1 E.8 F2100
;TYPE:Inner wall
;WIDTH:0.5
G1 F3000
G1 X76.913 Y-41.62 E.77455
G1 X62.268 Y-41.62 E.55662
G1 X62.268 Y-62 E.77455
G1 X76.873 Y-62 E.5551
G1 X77.37 Y-62.457 F30000
;TYPE:Outer wall
G1 F3000
G1 X77.37 Y-41.163 E.80929
G1 X61.811 Y-41.163 E.59136
G1 X61.811 Y-62.457 E.80929
G1 X77.33 Y-62.457 E.58984
G1 E-.8 F2100
;WIPE_START
G1 F3000
G1 X77.334 Y-60.457
;WIPE_END
G1 X76.73 Y-60.889 Z.6 F30000
G1 Z.2
G1 E.8 F2100
;TYPE:Bottom surface
;WIDTH:0.50167
G1 F4800
G1 X76.009 Y-61.611 E.03894
G1 X75.36 Y-61.611 E.02475
G1 X76.525 Y-60.446 E.06284
G1 X76.525 Y-59.797 E.02475
G1 X74.711 Y-61.611 E.09784
G1 X74.062 Y-61.611 E.02475
G1 X76.525 Y-59.149 E.13284
G1 X76.525 Y-58.5 E.02475
G1 X73.413 Y-61.611 E.16784
G1 X72.765 Y-61.611 E.02475
G1 X76.525 Y-57.851 E.20283
G1 X76.525 Y-57.202 E.02475
G1 X72.116 Y-61.611 E.23783
G1 X71.467 Y-61.611 E.02475
G1 X76.525 Y-56.553 E.27283
G1 X76.525 Y-55.905 E.02475
G1 X70.818 Y-61.611 E.30783
G1 X70.17 Y-61.611 E.02475
G1 X76.525 Y-55.256 E.34283
M73 P1 R33
G1 X76.525 Y-54.607 E.02475
G1 X69.521 Y-61.611 E.37783
G1 X68.872 Y-61.611 E.02475
G1 X76.525 Y-53.958 E.41282
G1 X76.525 Y-53.31 E.02475
G1 X68.223 Y-61.611 E.44782
G1 X67.575 Y-61.611 E.02475
G1 X76.525 Y-52.661 E.48282
G1 X76.525 Y-52.012 E.02475
G1 X66.926 Y-61.611 E.51782
G1 X66.277 Y-61.611 E.02475
G1 X76.525 Y-51.363 E.55282
G1 X76.525 Y-50.715 E.02475
G1 X65.628 Y-61.611 E.58782
G1 X64.979 Y-61.611 E.02475
G1 X76.525 Y-50.066 E.62281
G1 X76.525 Y-49.417 E.02475
G1 X64.331 Y-61.611 E.65781
G1 X63.682 Y-61.611 E.02475
G1 X76.525 Y-48.768 E.69281
G1 X76.525 Y-48.119 E.02475
G1 X63.033 Y-61.611 E.72781
G1 X62.656 Y-61.611 E.01437
G1 X62.656 Y-61.339 E.01037
G1 X76.525 Y-47.471 E.74814
G1 X76.525 Y-46.822 E.02475
G1 X62.656 Y-60.69 E.74814
G1 X62.656 Y-60.042 E.02475
G1 X76.525 Y-46.173 E.74814
G1 X76.525 Y-45.524 E.02475
G1 X62.656 Y-59.393 E.74814
G1 X62.656 Y-58.744 E.02475
G1 X76.525 Y-44.876 E.74814
G1 X76.525 Y-44.227 E.02475
G1 X62.656 Y-58.095 E.74814
G1 X62.656 Y-57.446 E.02475
G1 X76.525 Y-43.578 E.74814
G1 X76.525 Y-42.929 E.02475
G1 X62.656 Y-56.798 E.74814
G1 X62.656 Y-56.149 E.02475
G1 X76.525 Y-42.281 E.74814
G1 X76.525 Y-42.009 E.01037
G1 X76.148 Y-42.009 E.01438
G1 X62.656 Y-55.5 E.7278
G1 X62.656 Y-54.851 E.02475
G1 X75.499 Y-42.009 E.69281
G1 X74.85 Y-42.009 E.02475
G1 X62.656 Y-54.203 E.65781
G1 X62.656 Y-53.554 E.02475
G1 X74.201 Y-42.009 E.62281
G1 X73.553 Y-42.009 E.02475
G1 X62.656 Y-52.905 E.58781
G1 X62.656 Y-52.256 E.02475
G1 X72.904 Y-42.009 E.55281
G1 X72.255 Y-42.009 E.02475
G1 X62.656 Y-51.608 E.51781
G1 X62.656 Y-50.959 E.02475
G1 X71.606 Y-42.009 E.48282
G1 X70.958 Y-42.009 E.02475
G1 X62.656 Y-50.31 E.44782
G1 X62.656 Y-49.661 E.02475
G1 X70.309 Y-42.009 E.41282
G1 X69.66 Y-42.009 E.02475
G1 X62.656 Y-49.012 E.37782
G1 X62.656 Y-48.364 E.02475
G1 X69.011 Y-42.009 E.34282
G1 X68.363 Y-42.009 E.02475
G1 X62.656 Y-47.715 E.30783
G1 X62.656 Y-47.066 E.02475
G1 X67.714 Y-42.009 E.27283
G1 X67.065 Y-42.009 E.02475
G1 X62.656 Y-46.417 E.23783
G1 X62.656 Y-45.769 E.02475
G1 X66.416 Y-42.009 E.20283
G1 X65.767 Y-42.009 E.02475
G1 X62.656 Y-45.12 E.16783
G1 X62.656 Y-44.471 E.02475
G1 X65.119 Y-42.009 E.13283
G1 X64.47 Y-42.009 E.02475
G1 X62.656 Y-43.822 E.09784
G1 X62.656 Y-43.173 E.02475
G1 X63.821 Y-42.009 E.06284
G1 X63.172 Y-42.009 E.02475
G1 X62.451 Y-42.73 E.03894
G1 E-.8 F2100
;WIPE_START
G1 F4800
G1 X63.172 Y-42.009
G1 X63.821 Y-42.009
G1 X63.587 Y-42.242
;WIPE_END
G1 X64.586 Y-34.676 Z.6 F30000
G1 X68.953 Y-1.607 Z.6
G1 Z.2
G1 E.8 F2100
;TYPE:Inner wall
;WIDTH:0.5
G1 F3000
G3 X66.6 Y-5.106 I-2.355 J-.956 E.41809
G1 X66.746 Y-5.101 E.00555
G3 X68.967 Y-1.644 I-.148 J2.538 E.18187
G1 X69.376 Y-1.435 F30000
;TYPE:Outer wall
G1 F3000
G3 X66.6 Y-5.563 I-2.779 J-1.128 E.49328
G1 X66.773 Y-5.558 E.00656
G3 X69.391 Y-1.473 I-.175 J2.994 E.21483
G1 E-.8 F2100
;WIPE_START
G1 F3000
G1 X69.222 Y-1.115
G1 X68.925 Y-.673
G1 X68.554 Y-.291
G1 X68.271 Y-.075
G1 X68.113 Y.018
;WIPE_END
G1 X68.805 Y-3.383 Z.6 F30000
G1 Z.2
G1 E.8 F2100
;TYPE:Bottom surface
;WIDTH:0.518848
G1 F4800
G2 X67.901 Y-4.274 I-10.474 J9.707 E.05024
G2 X66.816 Y-4.698 I-1.268 J1.644 E.04674
G1 X68.73 Y-2.784 E.10711
G3 X68.704 Y-2.137 I-1.814 J.25 E.02576
G1 X66.171 Y-4.67 E.14174
G2 X65.67 Y-4.498 I.229 J1.48 E.02107
G1 X68.534 Y-1.634 E.16025
G3 X68.271 Y-1.224 I-1.693 J-.794 E.01934
G1 X65.255 Y-4.24 E.16882
G2 X64.916 Y-3.906 I1.177 J1.528 E.01888
G1 X67.938 Y-.883 E.16915
G3 X67.52 Y-.629 I-1.235 J-1.561 E.01944
G1 X64.655 Y-3.494 E.16034
G1 X64.519 Y-3.131 E.01535
G1 X64.492 Y-2.983 E.00592
G1 X67.019 Y-.457 E.14141
G3 X66.374 Y-.429 I-.383 J-1.385 E.02577
G1 X64.454 Y-2.349 E.10747
G2 X64.949 Y-1.181 I2.295 J-.284 E.05086
G1 X65.766 Y-.363 E.04575
G1 E-.8 F2100
;WIPE_START
G1 F4800
G1 X64.949 Y-1.181
G1 X64.712 Y-1.519
G1 X64.554 Y-1.879
G1 X64.544 Y-1.915
;WIPE_END
G1 X56.915 Y-1.685 Z.6 F30000
G1 X33.66 Y-.983 Z.6
G1 Z.2
G1 E.8 F2100
;TYPE:Inner wall
;WIDTH:0.5
G1 F3000
G3 X31.307 Y-4.481 I-2.355 J-.956 E.41809
G1 X31.453 Y-4.477 E.00555
G3 X33.675 Y-1.02 I-.148 J2.538 E.18187
G1 X34.084 Y-.811 F30000
;TYPE:Outer wall
G1 F3000
G3 X31.308 Y-4.939 I-2.779 J-1.128 E.49328
G1 X31.48 Y-4.934 E.00656
G3 X34.099 Y-.848 I-.175 J2.994 E.21483
G1 E-.8 F2100
;WIPE_START
G1 F3000
G1 X33.93 Y-.491
G1 X33.632 Y-.049
G1 X33.261 Y.333
G1 X32.979 Y.549
G1 X32.82 Y.642
;WIPE_END
G1 X33.512 Y-2.758 Z.6 F30000
G1 Z.2
G1 E.8 F2100
;TYPE:Bottom surface
;WIDTH:0.518848
G1 F4800
G2 X32.609 Y-3.65 I-10.474 J9.707 E.05024
G2 X31.524 Y-4.074 I-1.268 J1.644 E.04674
G1 X33.437 Y-2.16 E.10711
M73 P2 R33
G3 X33.411 Y-1.513 I-1.814 J.25 E.02576
G1 X30.879 Y-4.046 E.14174
G2 X30.378 Y-3.873 I.229 J1.48 E.02107
G1 X33.241 Y-1.01 E.16025
G3 X32.979 Y-.599 I-1.693 J-.794 E.01934
G1 X29.962 Y-3.616 E.16882
G2 X29.624 Y-3.281 I1.177 J1.528 E.01888
G1 X32.646 Y-.259 E.16915
G3 X32.227 Y-.005 I-1.235 J-1.561 E.01944
G1 X29.362 Y-2.87 E.16034
G1 X29.226 Y-2.506 E.01535
G1 X29.2 Y-2.359 E.00592
G1 X31.727 Y.168 E.14141
G3 X31.082 Y.196 I-.383 J-1.385 E.02577
G1 X29.161 Y-1.725 E.10747
G2 X29.656 Y-.556 I2.295 J-.284 E.05086
G1 X30.474 Y.261 E.04575
G1 E-.8 F2100
;WIPE_START
G1 F4800
G1 X29.656 Y-.556
G1 X29.42 Y-.894
G1 X29.261 Y-1.255
G1 X29.251 Y-1.291
;WIPE_END
G1 X33.214 Y-7.814 Z.6 F30000
G1 X52.17 Y-39.019 Z.6
G1 Z.2
G1 E.8 F2100
;TYPE:Inner wall
;WIDTH:0.5
G1 F3000
G1 X52.17 Y-18.64 E.77455
G1 X37.524 Y-18.64 E.55662
G1 X37.524 Y-39.019 E.77455
G1 X52.13 Y-39.019 E.5551
G1 X52.627 Y-39.476 F30000
;TYPE:Outer wall
G1 F3000
G1 X52.627 Y-18.182 E.80929
G1 X37.067 Y-18.182 E.59136
G1 X37.067 Y-39.476 E.80929
G1 X52.587 Y-39.476 E.58984
G1 E-.8 F2100
;WIPE_START
G1 F3000
G1 X52.591 Y-37.476
;WIPE_END
G1 X51.987 Y-37.909 Z.6 F30000
G1 Z.2
G1 E.8 F2100
;TYPE:Bottom surface
;WIDTH:0.50167
G1 F4800
G1 X51.265 Y-38.63 E.03894
G1 X50.616 Y-38.63 E.02475
G1 X51.781 Y-37.465 E.06284
G1 X51.781 Y-36.817 E.02475
G1 X49.967 Y-38.63 E.09784
G1 X49.319 Y-38.63 E.02475
G1 X51.781 Y-36.168 E.13284
G1 X51.781 Y-35.519 E.02475
G1 X48.67 Y-38.63 E.16784
G1 X48.021 Y-38.63 E.02475
G1 X51.781 Y-34.87 E.20283
G1 X51.781 Y-34.222 E.02475
G1 X47.372 Y-38.63 E.23783
G1 X46.724 Y-38.63 E.02475
G1 X51.781 Y-33.573 E.27283
G1 X51.781 Y-32.924 E.02475
G1 X46.075 Y-38.63 E.30783
G1 X45.426 Y-38.63 E.02475
G1 X51.781 Y-32.275 E.34283
G1 X51.781 Y-31.627 E.02475
G1 X44.777 Y-38.63 E.37783
G1 X44.129 Y-38.63 E.02475
G1 X51.781 Y-30.978 E.41282
G1 X51.781 Y-30.329 E.02475
G1 X43.48 Y-38.63 E.44782
G1 X42.831 Y-38.63 E.02475
G1 X51.781 Y-29.68 E.48282
G1 X51.781 Y-29.031 E.02475
G1 X42.182 Y-38.63 E.51782
G1 X41.533 Y-38.63 E.02475
G1 X51.781 Y-28.383 E.55282
G1 X51.781 Y-27.734 E.02475
G1 X40.885 Y-38.63 E.58782
G1 X40.236 Y-38.63 E.02475
G1 X51.781 Y-27.085 E.62281
G1 X51.781 Y-26.436 E.02475
G1 X39.587 Y-38.63 E.65781
G1 X38.938 Y-38.63 E.02475
G1 X51.781 Y-25.788 E.69281
G1 X51.781 Y-25.139 E.02475
G1 X38.29 Y-38.63 E.72781
G1 X37.913 Y-38.63 E.01437
G1 X37.913 Y-38.358 E.01037
G1 X51.781 Y-24.49 E.74814
G1 X51.781 Y-23.841 E.02475
G1 X37.913 Y-37.71 E.74814
G1 X37.913 Y-37.061 E.02475
G1 X51.781 Y-23.193 E.74814
G1 X51.781 Y-22.544 E.02475
G1 X37.913 Y-36.412 E.74814
G1 X37.913 Y-35.763 E.02475
G1 X51.781 Y-21.895 E.74814
G1 X51.781 Y-21.246 E.02475
G1 X37.913 Y-35.115 E.74814
G1 X37.913 Y-34.466 E.02475
G1 X51.781 Y-20.597 E.74814
G1 X51.781 Y-19.949 E.02475
G1 X37.913 Y-33.817 E.74814
G1 X37.913 Y-33.168 E.02475
G1 X51.781 Y-19.3 E.74814
G1 X51.781 Y-19.028 E.01037
G1 X51.404 Y-19.028 E.01438
G1 X37.913 Y-32.52 E.7278
G1 X37.913 Y-31.871 E.02475
G1 X50.755 Y-19.028 E.69281
G1 X50.107 Y-19.028 E.02475
M73 P2 R32
G1 X37.913 Y-31.222 E.65781
G1 X37.913 Y-30.573 E.02475
G1 X49.458 Y-19.028 E.62281
G1 X48.809 Y-19.028 E.02475
G1 X37.913 Y-29.924 E.58781
G1 X37.913 Y-29.276 E.02475
G1 X48.16 Y-19.028 E.55281
G1 X47.512 Y-19.028 E.02475
G1 X37.913 Y-28.627 E.51781
G1 X37.913 Y-27.978 E.02475
G1 X46.863 Y-19.028 E.48282
G1 X46.214 Y-19.028 E.02475
G1 X37.913 Y-27.329 E.44782
G1 X37.913 Y-26.681 E.02475
G1 X45.565 Y-19.028 E.41282
G1 X44.917 Y-19.028 E.02475
G1 X37.913 Y-26.032 E.37782
G1 X37.913 Y-25.383 E.02475
G1 X44.268 Y-19.028 E.34282
G1 X43.619 Y-19.028 E.02475
G1 X37.913 Y-24.734 E.30783
G1 X37.913 Y-24.085 E.02475
G1 X42.97 Y-19.028 E.27283
M73 P3 R32
G1 X42.321 Y-19.028 E.02475
G1 X37.913 Y-23.437 E.23783
G1 X37.913 Y-22.788 E.02475
G1 X41.673 Y-19.028 E.20283
G1 X41.024 Y-19.028 E.02475
G1 X37.913 Y-22.139 E.16783
G1 X37.913 Y-21.49 E.02475
G1 X40.375 Y-19.028 E.13283
G1 X39.726 Y-19.028 E.02475
G1 X37.913 Y-20.842 E.09784
G1 X37.913 Y-20.193 E.02475
G1 X39.078 Y-19.028 E.06284
G1 X38.429 Y-19.028 E.02475
G1 X37.707 Y-19.75 E.03894
G1 E-.8 F2100
;WIPE_START
G1 F4800
G1 X38.429 Y-19.028
G1 X39.078 Y-19.028
G1 X38.844 Y-19.262
;WIPE_END
G1 X32.381 Y-23.322 Z.6 F30000
G1 X11.126 Y-36.674 Z.6
G1 Z.2
G1 E.8 F2100
;TYPE:Inner wall
;WIDTH:0.5
G1 F3000
G1 X11.418 Y-36.774 E.01174
G3 X13.237 Y-37.055 I1.896 J6.245 E.07017
G1 X13.493 Y-37.053 E.00975
G3 X10.922 Y-36.602 I-.179 J6.524 E1.45861
G1 X11.088 Y-36.66 E.00671
G1 X10.974 Y-37.1 F30000
;TYPE:Outer wall
G1 F3000
G1 X11.556 Y-37.288 E.02324
G3 X13.231 Y-37.513 I1.758 J6.759 E.06439
G1 X13.506 Y-37.51 E.01044
G3 X10.754 Y-37.027 I-.192 J6.981 E1.56078
G1 X10.936 Y-37.087 E.00729
G1 E-.8 F2100
;WIPE_START
G1 F3000
G1 X11.556 Y-37.288
G1 X12.106 Y-37.408
G1 X12.663 Y-37.483
G1 X12.886 Y-37.495
;WIPE_END
G1 X18.769 Y-33.741 Z.6 F30000
G1 Z.2
G1 E.8 F2100
;TYPE:Bottom surface
;WIDTH:0.514417
G1 F4800
G1 X17.327 Y-35.171 E.07959
G2 X15.642 Y-36.202 I-3.929 J4.527 E.07784
G1 X18.988 Y-32.855 E.18556
G1 X19.253 Y-32.068 E.03258
G1 X19.293 Y-31.884 E.00738
G1 X14.664 Y-36.513 E.25669
G1 X13.872 Y-36.638 E.03142
G1 X19.413 Y-31.097 E.3072
G3 X19.447 Y-30.397 I-3.45 J.518 E.02755
G1 X13.182 Y-36.661 E.34732
G2 X12.566 Y-36.61 I-.057 J3.075 E.02428
G1 X19.398 Y-29.778 E.3788
G1 X19.301 Y-29.209 E.02266
G1 X11.996 Y-36.514 E.40503
G2 X11.463 Y-36.38 I.396 J2.704 E.02158
G1 X19.163 Y-28.68 E.42693
G3 X18.986 Y-28.19 I-30.796 J-10.862 E.02042
G1 X10.975 Y-36.202 E.4442
G2 X10.52 Y-35.989 I.824 J2.356 E.0197
G1 X18.775 Y-27.734 E.4577
G1 X18.529 Y-27.314 E.0191
G1 X10.095 Y-35.748 E.46762
G2 X9.699 Y-35.477 I.917 J1.766 E.01885
G1 X18.264 Y-26.912 E.47491
G3 X17.966 Y-26.543 I-1.963 J-1.279 E.01862
G1 X9.32 Y-35.189 E.4794
G2 X8.974 Y-34.868 I1.42 J1.877 E.01853
G1 X17.651 Y-26.192 E.48106
G3 X17.299 Y-25.877 I-1.472 J-1.292 E.01856
G1 X8.658 Y-34.517 E.47907
G2 X8.36 Y-34.148 I1.684 J1.665 E.01862
G1 X16.932 Y-25.577 E.47524
G3 X16.533 Y-25.309 I-1.861 J-2.334 E.01885
G1 X8.092 Y-33.75 E.46802
G2 X7.855 Y-33.32 I2.012 J1.385 E.01928
G1 X16.104 Y-25.071 E.45735
G1 X15.649 Y-24.859 E.01968
G1 X7.638 Y-32.87 E.44417
G2 X7.461 Y-32.381 I18.519 J6.984 E.02041
G1 X15.155 Y-24.686 E.42663
G3 X14.635 Y-24.54 I-.983 J-2.503 E.02124
G1 X7.325 Y-31.849 E.40527
G2 X7.223 Y-31.285 I2.743 J.79 E.02252
G1 X14.06 Y-24.448 E.37909
G3 X13.444 Y-24.397 I-.561 J-3.022 E.02426
G1 X7.176 Y-30.665 E.34756
G2 X7.209 Y-29.965 I3.481 J.185 E.02753
G1 X12.746 Y-24.428 E.30699
G3 X11.966 Y-24.542 I.171 J-3.918 E.03097
G1 X7.328 Y-29.179 E.25714
G1 X7.369 Y-28.99 E.0076
G1 X7.631 Y-28.21 E.03225
G1 X10.988 Y-24.852 E.18616
G3 X9.17 Y-26.004 I2.162 J-5.426 E.08484
G1 X7.848 Y-27.326 E.07333
G1 E-.8 F2100
;WIPE_START
G1 F4800
G1 X9.17 Y-26.004
G1 X9.27 Y-25.921
;WIPE_END
G1 X15.363 Y-30.518 Z.6 F30000
G1 X18.97 Y-33.239 Z.6
G1 Z.2
G1 E.8 F2100
;TYPE:Gap infill
;WIDTH:0.102405
G1 F3000
G1 X18.94 Y-33.283 E.00026
;WIDTH:0.131706
G1 X18.804 Y-33.461 E.00166
;WIDTH:0.156372
G1 X18.668 Y-33.64 E.00212
G1 E-.8 F2100
;WIPE_START
G1 F3000
G1 X18.804 Y-33.461
;WIPE_END
G1 X11.173 Y-33.595 Z.6 F30000
G1 X-18.965 Y-34.121 Z.6
G1 Z.2
G1 E.8 F2100
;TYPE:Inner wall
;WIDTH:0.5
G1 F3000
G1 X-18.673 Y-34.221 E.01174
G3 X-16.854 Y-34.502 I1.896 J6.245 E.07017
G1 X-16.598 Y-34.5 E.00975
G3 X-19.169 Y-34.048 I-.179 J6.524 E1.45861
G1 X-19.002 Y-34.107 E.00671
G1 X-19.116 Y-34.547 F30000
;TYPE:Outer wall
G1 F3000
G1 X-18.535 Y-34.735 E.02324
G3 X-16.86 Y-34.959 I1.758 J6.759 E.06439
G1 X-16.585 Y-34.957 E.01044
G3 X-19.336 Y-34.474 I-.192 J6.981 E1.56078
G1 X-19.154 Y-34.534 E.00729
