; HEADER_BLOCK_START
; generated by OrcaSlicer 2.0.0 on 2024-11-30 at 23:24:29
; total layer number: 25
; filament_density: 1.27
; filament_diameter: 1.75
; max_z_height: 5.00
; HEADER_BLOCK_END

; THUMBNAIL_BLOCK_START

;
; THUMBNAIL_BLOCK_END

; external perimeters extrusion width = 0.42mm
; perimeters extrusion width = 0.45mm
; infill extrusion width = 0.45mm
; solid infill extrusion width = 0.42mm
; top infill extrusion width = 0.42mm
; first layer extrusion width = 0.50mm

; external perimeters extrusion width = 0.42mm
; perimeters extrusion width = 0.45mm
; infill extrusion width = 0.45mm
; solid infill extrusion width = 0.42mm
; top infill extrusion width = 0.42mm
; first layer extrusion width = 0.50mm

; EXECUTABLE_BLOCK_START
M73 P0 R29
M106 S0
M106 P2 S0
;TYPE:Custom
M190 S70
M104 S255
G90
M83
G1 Z5 F6000
G1 E-1.5 F800
G1 X110 Y-110 F6000
G1 E2 F800
G1 Y-110 X55 Z0.25 F4800
G1 X-55 E8 F2400
G1 Y-109.6 F2400
G1 X55 E5 F2400
G1 Y-110 X55 Z0.45 F4800
G1 X-55 E8 F2400
G1 Y-109.6 F2400
G1 X55 E5 F2400
G92 E0
G90
G21
M83 ; use relative distances for extrusion
; filament start gcode 
;right_extruder_material:PETG
SET_PRESSURE_ADVANCE ADVANCE=0.046; Override pressure advance value
M106 S0
M106 P2 S0
;LAYER_CHANGE
;Z:0.2
;HEIGHT:0.2
;BEFORE_LAYER_CHANGE
;0.2
G1 E-.8 F2100
;AFTER_LAYER_CHANGE
;0.2
;_SET_FAN_SPEED_CHANGING_LAYER
SET_VELOCITY_LIMIT ACCEL=500
G1 X56.68 Y-15.244 F30000
G1 Z.4
G1 Z.2
G1 E.8 F2100
;TYPE:Inner wall
;WIDTH:0.5
G1 F3000
G1 X56.776 Y-15.317 E.00459
G3 X57.538 Y-15.621 I1.242 J2.003 E.03133
G1 X57.745 Y-15.655 E.00798
G3 X56.451 Y-15.074 I.274 J2.341 E.50803
G1 X56.648 Y-15.22 E.00931
G1 X56.953 Y-14.879 F30000
;TYPE:Outer wall
G1 F3000
G1 X57.018 Y-14.928 E.00309
G3 X57.631 Y-15.174 I1.001 J1.614 E.02524
G1 X57.799 Y-15.201 E.00646
G3 X56.756 Y-14.733 I.22 J1.887 E.40945
G1 X56.921 Y-14.855 E.0078
G1 E-.8 F2100
;WIPE_START
G1 F3000
G1 X57.018 Y-14.928
G1 X57.314 Y-15.077
G1 X57.631 Y-15.174
G1 X57.799 Y-15.201
G1 X58.125 Y-15.211
G1 X58.29 Y-15.195
G1 X58.613 Y-15.12
G1 X58.817 Y-15.033
;WIPE_END
G1 X51.327 Y-13.566 Z.6 F30000
G1 X38.23 Y-11.002 Z.6
G1 Z.2
G1 E.8 F2100
;TYPE:Inner wall
G1 F3000
G1 X38.09 Y-10.975 E.00544
G3 X37.324 Y-15.621 I-.285 J-2.339 E.27387
G1 X37.531 Y-15.655 E.00798
G3 X38.493 Y-11.06 I.274 J2.341 E.26527
G1 X38.269 Y-11.011 E.00869
G1 X38.137 Y-11.448 F30000
;TYPE:Outer wall
G1 F3000
G1 X38.035 Y-11.429 E.00392
G3 X37.417 Y-15.174 I-.23 J-1.885 E.22071
G1 X37.585 Y-15.201 E.00646
G3 X38.359 Y-11.497 I.22 J1.887 E.2138
G1 X38.176 Y-11.457 E.00715
G1 E-.8 F2100
;WIPE_START
G1 F3000
G1 X38.035 Y-11.429
G1 X37.704 Y-11.416
G1 X37.376 Y-11.463
G1 X37.062 Y-11.566
G1 X36.912 Y-11.638
G1 X36.635 Y-11.819
G1 X36.393 Y-12.045
G1 X36.372 Y-12.073
;WIPE_END
G1 X39.695 Y-18.944 Z.6 F30000
M73 P1 R29
G1 X46.238 Y-32.471 Z.6
G1 Z.2
G1 E.8 F2100
;TYPE:Inner wall
G1 F3000
G1 X46.5 Y-32.706 E.01339
G3 X47.429 Y-33.127 I1.415 J1.885 E.0391
G1 X47.632 Y-33.161 E.00782
G3 X46.194 Y-32.431 I.282 J2.34 E.50024
G1 X46.208 Y-32.444 E.00072
G1 X46.542 Y-32.131 F30000
;TYPE:Outer wall
G1 F3000
G1 X46.774 Y-32.34 E.01187
G3 X47.524 Y-32.679 I1.14 J1.519 E.03151
G1 X47.687 Y-32.706 E.0063
G3 X46.514 Y-32.103 I.227 J1.886 E.40238
G1 E-.8 F2100
;WIPE_START
G1 F3000
G1 X46.774 Y-32.34
G1 X47.056 Y-32.515
G1 X47.207 Y-32.583
G1 X47.524 Y-32.679
G1 X47.687 Y-32.706
G1 X48.018 Y-32.717
G1 X48.338 Y-32.672
;WIPE_END
G1 X40.867 Y-34.236 Z.6 F30000
G1 X34.896 Y-35.485 Z.6
G1 Z.2
G1 E.8 F2100
;TYPE:Inner wall
G1 F3000
G2 X33.178 Y-36.64 I-12.784 J17.172 E.07871
G2 X21.116 Y-19.787 I-5.231 J8.999 E1.16789
G1 X21.715 Y-19.281 E.02981
G3 X22.375 Y-19.518 I1.849 J4.121 E.02669
G3 X23.179 Y-17.514 I.251 J1.063 E.11793
G3 X34.67 Y-36.595 I4.77 J-10.128 E1.4234
G1 X35.519 Y-35.932 E.04094
G3 X44.022 Y-39.62 I12.635 J17.487 E.35503
G3 X58.083 Y-37.304 I3.839 J20.529 E.55269
G1 X59.45 Y-36.513 E.06004
G2 X59.955 Y-38.246 I-24.241 J-8.007 E.06865
G2 X40.287 Y-44.833 I-10.118 J-2.445 E1.17486
G1 X39.961 Y-44.043 E.03246
G3 X40.392 Y-43.486 I-3.359 J3.043 E.02676
G3 X38.734 Y-42.103 I-.933 J.567 E.11794
G3 X50.154 Y-51.888 I11.11 J1.409 E.62669
G3 X60.403 Y-36.992 I-.326 J11.198 E.79964
G1 X60.061 Y-36.066 E.03752
G3 X66.155 Y-29.127 I-12.798 J17.382 E.35371
G3 X68.288 Y-15.118 I-18.363 J9.963 E.54947
G1 X67.963 Y-13.578 E.05982
G2 X69.765 Y-13.632 I.133 J-25.478 E.06854
G2 X69.954 Y-34.374 I-.798 J-10.379 E1.17502
G1 X69.102 Y-34.44 E.03247
G3 X68.706 Y-33.859 I-3.932 J-2.254 E.02676
G3 X66.878 Y-35.008 I-.827 J-.712 E.11795
G3 X68.714 Y-12.82 I2.095 J10.997 E1.42653
G1 X67.726 Y-12.859 E.03758
G3 X63.025 Y-4.904 I-20.511 J-6.755 E.35391
G3 X50.369 Y1.484 I-15.185 J-14.354 E.54971
G1 X48.807 Y1.654 E.05973
G2 X49.412 Y3.342 I24.164 J-7.704 E.06818
G2 X69.2 Y-2.878 I9.628 J-3.957 E1.17535
G1 X68.999 Y-3.709 E.03247
G3 X68.324 Y-3.906 I.929 J-4.436 E.02676
G3 X68.852 Y-5.999 I.422 J-1.007 E.11795
G3 X48.317 Y2.603 I-9.811 J5.39 E1.42653
G1 X48.048 Y1.65 E.03763
G3 X39.014 Y-.351 I.043 J-21.593 E.35445
G3 X29.005 Y-10.42 I8.935 J-18.89 E.55052
G1 X28.36 Y-11.853 E.05974
G2 X26.936 Y-10.752 I14.851 J20.677 E.06843
G2 X38.972 Y6.141 I6.744 J7.93 E1.17509
G1 X39.7 Y5.693 E.03247
G3 X39.679 Y4.99 I4.506 J-.487 E.02676
G3 X41.833 Y4.846 I1.088 J.09 E.11795
G3 X27.307 Y-12.026 I-8.158 J-7.665 E1.42653
M73 P1 R28
G1 X28.13 Y-12.576 E.03763
G3 X27.239 Y-21.794 I20.547 J-6.637 E.35471
G3 X33.732 Y-34.43 I20.726 J2.662 E.55095
G1 X34.867 Y-35.459 E.0582
G1 X34.163 Y-35.438 F30000
;TYPE:Outer wall
G1 F3000
G2 X29.985 Y-37.382 I-6.527 J8.568 E.17653
G2 X21.807 Y-19.802 I-2.03 J9.748 E1.01474
G3 X22.982 Y-19.965 I.842 J1.749 E.04583
G3 X23.176 Y-17.013 I-.353 J1.506 E.1499
G3 X35.538 Y-36.497 I4.78 J-10.631 E1.51839
G3 X59.178 Y-37.198 I12.346 J17.388 E.95277
G2 X59.724 Y-41.849 I-10.148 J-3.55 E.17942
G2 X40.486 Y-44.116 I-9.889 J1.156 E1.01195
G3 X41.005 Y-43.048 I-1.404 J1.342 E.04587
G3 X38.257 Y-41.951 I-1.541 J.13 E.14989
G3 X50.167 Y-52.345 I11.596 J1.267 E.66012
G3 X60.605 Y-36.22 I-.336 J11.658 E.85776
M73 P2 R28
G3 X68.529 Y-14.048 I-12.784 J17.071 E.94798
G2 X73.121 Y-14.964 I.243 J-10.746 E.17939
G2 X69.334 Y-33.964 I-4.153 J-9.049 E1.01209
G3 X68.478 Y-33.14 I-1.71 J-.92 E.04587
G3 X66.586 Y-35.414 I-.6 J-1.425 E.14989
G3 X68.041 Y-12.389 I2.384 J11.408 E1.51816
G3 X49.428 Y2.046 I-20.206 J-6.837 E.94835
G2 X51.717 Y6.129 I10.303 J-3.092 E.17935
G2 X68.618 Y-3.341 I7.324 J-6.744 E1.01215
G3 X67.57 Y-3.9 I.347 J-1.911 E.04587
G3 X69.148 Y-6.403 I1.17 J-1.011 E.14989
G3 X47.699 Y2.095 I-10.113 J5.793 E1.51818
G3 X28.18 Y-11.141 I.217 J-21.331 E.94973
G2 X25.003 Y-7.702 I6.116 J8.836 E.17935
G2 X39.233 Y5.444 I8.678 J4.882 E1.01215
G3 X39.441 Y4.275 I1.925 J-.261 E.04587
G3 X42.308 Y5.003 I1.323 J.8 E.14989
G3 X27.598 Y-12.77 I-8.634 J-7.828 E1.51818
G3 X34.133 Y-35.412 I20.354 J-6.39 E.94889
G1 X34.898 Y-35.941 F30000
;TYPE:Gap infill
;WIDTH:0.371112
G1 F3000
G2 X29.584 Y-38.318 I-7.17 J8.902 E.16063
G1 X29.476 Y-38.334 E.003
G2 X21.503 Y-18.959 I-1.524 J10.7 E.7798
G1 E-.8 F2100
;WIPE_START
G1 F3000
G1 X20.806 Y-19.537
G1 X20.142 Y-20.174
G1 X20.027 Y-20.305
;WIPE_END
G1 X22.674 Y-19.357 Z.6 F30000
G1 Z.2
G1 E.8 F2100
;TYPE:Bottom surface
;WIDTH:0.564087
G1 F4800
G1 X23.241 Y-18.79 E.03471
G3 X23.216 Y-18.078 I-.602 J.336 E.03246
G1 X22.077 Y-19.217 E.06976
G1 E-.8 F2100
;WIPE_START
G1 F4800
G1 X23.216 Y-18.078
G1 X23.313 Y-18.313
G1 X23.326 Y-18.448
;WIPE_END
G1 X23.003 Y-17.889 Z.6 F30000
G1 Z.2
G1 E.8 F2100
;TYPE:Gap infill
;WIDTH:0.1193
G1 F3000
G1 X22.883 Y-17.977 E.00095
;WIDTH:0.162359
G1 X22.763 Y-18.066 E.00148
;WIDTH:0.205418
G1 X22.643 Y-18.154 E.00201
;WIDTH:0.248477
G1 X22.523 Y-18.242 E.00255
;WIDTH:0.294014
G1 X22.361 Y-18.369 E.0043
;WIDTH:0.342032
G1 X22.2 Y-18.497 E.00512
;WIDTH:0.390049
G1 X22.038 Y-18.625 E.00594
;WIDTH:0.414058
G1 X21.733 Y-18.88 E.01229
G1 E-.8 F2100
;WIPE_START
G1 F3000
G1 X22.038 Y-18.625
;WIPE_END
G1 X27.133 Y-12.942 Z.6 F30000
G1 X27.962 Y-12.017 Z.6
G1 Z.2
G1 E.8 F2100
;WIDTH:0.370727
G1 F3000
G2 X24.174 Y-7.956 I6.285 J9.662 E.1529
G1 X24.08 Y-7.781 E.00541
G2 X39.94 Y5.993 I9.603 J4.96 E.7851
G1 E-.8 F2100
;WIPE_START
G1 F3000
G1 X39.17 Y6.481
G1 X38.271 Y6.956
G1 X38.205 Y6.983
;WIPE_END
G1 X40.812 Y4.172 Z.6 F30000
G1 Z.2
G1 E.8 F2100
;TYPE:Bottom surface
;WIDTH:0.554263
G1 F4800
G1 X41.376 Y4.748 E.03429
G1 X41.015 Y5.098 E.0214
G1 X40.398 Y4.481 E.03707
G2 X40.09 Y4.896 I.37 J.598 E.0225
G1 X40.781 Y5.587 E.04154
G1 X40.541 Y5.725 F30000
;TYPE:Gap infill
;WIDTH:0.41847
G1 F3000
G1 X40.258 Y5.703 E.00885
;WIDTH:0.421818
G1 X40.087 Y5.493 E.00853
;WIDTH:0.4085
G1 X39.916 Y5.284 E.00823
G1 E-.8 F2100
;WIPE_START
G1 F3000
G1 X40.087 Y5.493
;WIPE_END
G1 X47.294 Y2.979 Z.6 F30000
G1 X48.689 Y2.491 Z.6
G1 Z.2
G1 E.8 F2100
;WIDTH:0.371276
G1 F3000
G2 X69.358 Y-3.845 I10.353 J-3.109 E.93056
G1 X69.417 Y-4.051 F30000
;TYPE:Bottom surface
;WIDTH:0.572506
G1 F4800
G1 X68.163 Y-5.304 E.07807
G2 X68.116 Y-4.603 I.574 J.391 E.03247
G1 X68.745 Y-3.973 E.03919
G1 X69.205 Y-4.684 F30000
;TYPE:Gap infill
;WIDTH:0.23164
G1 F3000
G1 X69.056 Y-4.892 E.00401
;WIDTH:0.281446
G1 X68.908 Y-5.1 E.00507
;WIDTH:0.331252
G1 X68.759 Y-5.308 E.00613
;WIDTH:0.381057
G1 X68.61 Y-5.516 E.00718
;WIDTH:0.40596
G1 X68.462 Y-5.724 E.00771
G1 E-.8 F2100
;WIPE_START
G1 F3000
G1 X68.61 Y-5.516
;WIPE_END
G1 X68.722 Y-13.147 Z.6 F30000
G1 X68.723 Y-13.208 Z.6
G1 Z.2
G1 E.8 F2100
;WIDTH:0.34644
G1 F3000
G1 X68.188 Y-13.212 E.0135
;WIDTH:0.331941
G1 X67.653 Y-13.216 E.01286
G1 E-.8 F2100
;WIPE_START
G1 F3000
G1 X68.188 Y-13.212
;WIPE_END
G1 X68.723 Y-13.208 Z.6 F30000
G1 Z.2
G1 E.8 F2100
;WIDTH:0.371006
G1 F3000
G2 X69.084 Y-34.823 I.243 J-10.807 E.92981
G1 E-.8 F2100
;WIPE_START
G1 F3000
G1 X70.325 Y-34.728
G1 X71.069 Y-34.598
;WIPE_END
G1 X67.936 Y-34.973 Z.6 F30000
G1 Z.2
G1 E.8 F2100
;TYPE:Bottom surface
;WIDTH:0.54637
G1 F4800
G1 X68.566 Y-34.343 E.03732
G3 X68.232 Y-33.965 I-.938 J-.493 E.02132
G1 X67.494 Y-34.703 E.04367
G1 X67.19 Y-34.66 E.01286
G2 X67.292 Y-34.194 I.607 J.112 E.02049
G1 X67.824 Y-33.661 E.03154
G1 E-.8 F2100
;WIPE_START
G1 F4800
G1 X67.292 Y-34.194
G1 X67.204 Y-34.379
G1 X67.18 Y-34.545
G1 X67.19 Y-34.66
G1 X67.494 Y-34.703
G1 X67.814 Y-34.384
;WIPE_END
G1 X60.294 Y-35.689 Z.6 F30000
G1 X60.231 Y-35.7 Z.6
G1 Z.2
G1 E.8 F2100
;WIDTH:0.501671
G1 F4800
G1 X62.464 Y-33.467 E.12046
G3 X65.026 Y-30.257 I-14.964 J14.568 E.15693
G1 X58.9 Y-36.382 E.33042
G2 X57.428 Y-37.205 I-9.571 J15.381 E.06439
G1 X65.942 Y-28.692 E.45928
G3 X66.551 Y-27.433 I-13.264 J7.204 E.05336
G1 X56.164 Y-37.821 E.56037
G1 X55.317 Y-38.187 E.0352
G1 X55.058 Y-38.278 E.01048
G1 X67.004 Y-26.332 E.64445
G3 X67.34 Y-25.346 I-8.329 J3.396 E.03975
G1 X54.057 Y-38.63 E.7166
G1 X53.153 Y-38.885 E.03583
G1 X67.6 Y-24.438 E.77937
M73 P3 R28
G3 X67.806 Y-23.583 I-6.034 J1.905 E.03356
G1 X52.289 Y-39.1 E.83706
G1 X51.477 Y-39.263 E.0316
G1 X67.981 Y-22.76 E.89029
G3 X68.09 Y-22.002 I-5.392 J1.166 E.02925
G1 X50.709 Y-39.383 E.93763
G1 X49.964 Y-39.479 E.02866
G1 X68.192 Y-21.251 E.98333
G1 X68.25 Y-20.544 E.02704
G1 X49.255 Y-39.54 E1.02472
G2 X48.57 Y-39.576 I-.726 J7.324 E.02616
G1 X68.276 Y-19.87 E1.06305
G1 X68.292 Y-19.205 E.02535
G1 X47.905 Y-39.591 E1.09975
G2 X47.27 Y-39.578 I-.172 J6.813 E.02424
G1 X68.285 Y-18.563 E1.13363
G3 X68.259 Y-17.94 I-5.388 J.093 E.02381
G1 X46.649 Y-39.55 E1.16577
G1 X46.042 Y-39.508 E.02319
G1 X68.204 Y-17.346 E1.19553
G1 X68.149 Y-16.752 E.02275
G1 X45.459 Y-39.443 E1.22404
G2 X44.885 Y-39.368 I.505 J6.149 E.0221
G1 X68.068 Y-16.185 E1.25064
G1 X67.977 Y-15.627 E.02156
G1 X44.328 Y-39.277 E1.27578
G2 X43.783 Y-39.172 I.853 J5.92 E.02115
G1 X67.881 Y-15.074 E1.29998
G1 X67.768 Y-14.538 E.02088
G1 X50.461 Y-31.851 E.9338
G2 X48.954 Y-33.352 I-2.58 J1.083 E.08322
G1 X43.248 Y-39.058 E.30783
G2 X42.735 Y-38.922 I.913 J4.474 E.02025
G1 X48.099 Y-33.558 E.28937
G1 X47.586 Y-33.548 E.01961
G1 X47.483 Y-33.526 E.004
G1 X42.226 Y-38.783 E.28358
G2 X41.722 Y-38.639 I.777 J3.676 E.02004
G1 X46.97 Y-33.39 E.28314
G2 X46.53 Y-33.182 I.37 J1.353 E.01868
G1 X41.241 Y-38.47 E.28529
G1 X40.761 Y-38.302 E.01942
G1 X46.145 Y-32.917 E.29047
G2 X45.823 Y-32.591 I1.079 J1.386 E.01755
G1 X40.289 Y-38.125 E.29856
G1 X39.831 Y-37.934 E.01892
G1 X45.554 Y-32.211 E.30874
G1 X45.491 Y-32.115 E.00439
G1 X45.345 Y-31.772 E.01423
G1 X39.381 Y-37.735 E.32172
G1 X38.941 Y-37.527 E.01858
G1 X45.207 Y-31.261 E.33803
G2 X45.182 Y-30.637 I2.406 J.409 E.02388
G1 X38.359 Y-37.46 E.36806
G1 E-.8 F2100
;WIPE_START
G1 F4800
G1 X39.773 Y-36.046
;WIPE_END
G1 X46.73 Y-32.907 Z.6 F30000
G1 X50.412 Y-31.245 Z.6
G1 Z.2
G1 E.8 F2100
G1 F4800
G1 X67.655 Y-14.003 E.93017
G1 X67.606 Y-13.771 E.00904
G1 X67.269 Y-13.771 E.01288
G1 X67.268 Y-13.741 E.00116
G1 X50.619 Y-30.39 E.89817
G3 X50.487 Y-29.873 I-2.011 J-.236 E.02042
G1 X67.263 Y-13.097 E.90499
G1 X67.26 Y-12.716 E.01454
G1 X67.189 Y-12.522 E.00787
G1 X50.279 Y-29.433 E.91226
G1 X50.077 Y-29.123 E.0141
G1 X50.01 Y-29.052 E.0037
G1 X67.016 Y-12.047 E.91737
G3 X66.831 Y-11.583 I-6.702 J-2.393 E.01906
G1 X49.687 Y-28.727 E.92486
G1 X49.308 Y-28.457 E.01774
G1 X66.644 Y-11.121 E.93519
G3 X66.438 Y-10.678 I-3.933 J-1.561 E.01864
G1 X48.87 Y-28.247 E.94773
G3 X48.353 Y-28.114 I-.76 J-1.896 E.0204
G1 X66.229 Y-10.238 E.96434
G1 X66.02 Y-9.798 E.01858
G1 X47.497 Y-28.322 E.99926
G1 E-.8 F2100
;WIPE_START
G1 F4800
G1 X48.911 Y-26.908
;WIPE_END
G1 X43.352 Y-32.138 Z.6 F30000
G1 X37.94 Y-37.23 Z.6
G1 Z.2
G1 E.8 F2100
G1 F4800
G1 X45.377 Y-29.793 E.40121
G2 X46.889 Y-28.281 I2.444 J-.932 E.08404
G1 X65.943 Y-9.227 E1.02788
M73 P4 R28
G1 E-.8 F2100
;WIPE_START
G1 F4800
G1 X64.529 Y-10.641
;WIPE_END
G1 X58.819 Y-15.706 Z.6 F30000
G1 X58.786 Y-15.735 Z.6
G1 Z.2
G1 E.8 F2100
G1 F4800
G1 X37.672 Y-36.85 E1.13903
G2 X37.263 Y-36.61 I1.849 J3.63 E.0181
G1 X57.826 Y-16.046 E1.10932
G1 X57.699 Y-16.042 E.00487
G1 X57.271 Y-15.953 E.01667
G1 X36.863 Y-36.361 E1.10089
G2 X36.47 Y-36.105 I3.453 J5.754 E.0179
G1 X56.801 Y-15.774 E1.0968
G2 X56.404 Y-15.522 I1.146 J2.253 E.01796
G1 X36.082 Y-35.844 E1.09626
G1 X35.968 Y-35.767 E.00524
G1 X35.774 Y-35.503 E.01249
G1 X56.057 Y-15.22 E1.09419
G2 X55.76 Y-14.869 I1.168 J1.29 E.01761
G1 X35.499 Y-35.13 E1.093
G1 X35.348 Y-34.925 E.00972
G1 X35.077 Y-35.124 E.01282
G1 X34.962 Y-35.018 E.00598
G1 X55.527 Y-14.453 E1.1094
G1 X55.357 Y-13.974 E.0194
G1 X34.623 Y-34.708 E1.11853
G1 X34.284 Y-34.398 E.01752
G1 X55.493 Y-13.19 E1.1441
G1 E-.8 F2100
;WIPE_START
G1 F4800
G1 X54.079 Y-14.604
;WIPE_END
G1 X60.444 Y-14.077 Z.6 F30000
G1 Z.2
G1 E.8 F2100
G1 F4800
G1 X65.562 Y-8.959 E.27609
G1 X65.316 Y-8.556 E.01801
G1 X60.758 Y-13.114 E.24588
G1 X60.698 Y-12.69 E.01634
G1 X60.657 Y-12.566 E.00496
G1 X65.071 Y-8.153 E.23807
G3 X64.81 Y-7.765 I-4.331 J-2.632 E.01784
G1 X60.476 Y-12.099 E.23377
G3 X60.235 Y-11.691 I-1.669 J-.712 E.01812
G1 X64.548 Y-7.378 E.23268
G3 X64.272 Y-7.006 I-4.16 J-2.798 E.0177
G1 X59.93 Y-11.347 E.23421
G3 X59.573 Y-11.056 I-.996 J-.858 E.01768
G1 X63.995 Y-6.634 E.23856
G3 X63.704 Y-6.276 I-4.003 J-2.958 E.0176
G1 X59.159 Y-10.821 E.2452
G3 X58.677 Y-10.654 I-.878 J-1.757 E.01951
G1 X63.412 Y-5.919 E.25544
G3 X63.107 Y-5.576 I-3.857 J-3.121 E.01754
G1 X57.906 Y-10.777 E.28058
G1 E-.8 F2100
;WIPE_START
G1 F4800
G1 X59.32 Y-9.363
;WIPE_END
G1 X62.945 Y-5.088 Z.6 F30000
G1 Z.2
G1 E.8 F2100
G1 F4800
G1 X57.395 Y-10.639 E.2994
G3 X55.359 Y-12.675 I.625 J-2.661 E.11568
G1 X33.946 Y-34.088 E1.15514
G2 X33.61 Y-33.775 I2.265 J2.766 E.01752
G1 X62.477 Y-4.908 E1.55724
G1 X62.151 Y-4.585 E.0175
G1 X33.292 Y-33.444 E1.55679
G1 X32.975 Y-33.113 E.0175
G1 X61.825 Y-4.263 E1.55634
G3 X61.485 Y-3.953 I-2.836 J-2.772 E.01753
G1 X32.658 Y-32.781 E1.55513
G1 X32.362 Y-32.427 E.01757
G1 X61.14 Y-3.649 E1.55245
G3 X60.786 Y-3.355 I-3.346 J-3.679 E.01758
G1 X32.067 Y-32.074 E1.54922
G1 X31.772 Y-31.72 E.01757
G1 X60.426 Y-3.067 E1.54572
G3 X60.056 Y-2.787 I-3.196 J-3.841 E.01767
G1 X31.499 Y-31.344 E1.54052
G1 X31.227 Y-30.968 E.01772
G1 X59.681 Y-2.514 E1.53496
G3 X59.297 Y-2.249 I-3.045 J-4.01 E.0178
G1 X30.955 Y-30.591 E1.52892
